!!!!SEGMENT: pl-sa--152-a-iv-2--005_bauer--missa-in-f-benedictus.krn
!!!cenid: 17xx:676
!!!COM: Bauer
!!!COM-rismID: pe30005329
!!!CDT:
!!!CNT:
!!!OPR: Missa in F
!!!OTL: Benedictus
!!!OMV: 005
!!!PDT:
!!!AGN: Sacred; Mass
!!!SMS-siglum: PL-SA
!!!SMS-shelfmark: 152/A IV 2
!!!SMS-shelfwork: 001-005 M
!!!SMS-variant:
!!!SMS-altvar:
!!!NIFC-rismSourceID: 1001035512
!!!NIFC-islandoraID:
!!!URL-pdf-islandora:
!!!URL-scan: https://bc.bdsandomierz.pl/dlibra/publication/1538/edition/1506/content @EN{Scan on Cyfrowa Biblioteka Diecezjalna w Sandomierzu} @PL{Skany w portalu Cyfrowa Biblioteka Diecezjalna w Sandomierzu}
!!!ONB-nifc: UWAGA: części Mszy: Kyrie, Gloria, Credo, Sanctus, Benedictus, Agnus Dei, Dona nobis
!!!AIN: 4 empty 1 flt 1 tenor 2 violn 1 vox
!!!key:
**kern	**kern	**kern	**dynam	**kern	**text	**kern	**text	**kern	**text	**kern	**kern	**kern
*part9	*part8	*part7	*part7	*part6	*part6	*part5	*part5	*part4	*part4	*part3	*part2	*part1
*staff9	*staff8	*staff7	*	*staff6	*staff6	*staff5	*staff5	*staff4	*staff4	*staff3	*staff2	*staff1
*group5	*group4	*group4	*	*group3	*	*group3	*	*group3	*	*group2	*group2	*group1
*Iempty	*Ivioln	*Ivioln	*	*Iempty	*	*Itenor	*	*Ivox	*	*Iempty	*Iempty	*Iflt
*I"Fundamento	*I"Violino Secondo:	*I"Violino Primo	*	*I"Baſso.	*	*I"Tenore.	*	*I"Canto	*	*I"Cornu Secondo in F	*I"Cornu Primo in F	*I"Flauto Primo
*I'org	*I'vl 2	*I'vl 1	*	*I'B	*	*I'T	*	*I'S	*	*I'cor 2	*I'cor 1	*I'fl 1
*clefF4	*clefG2	*clefG2	*	*clefF4	*	*clefC4	*	*clefC1	*	*clefG2	*clefG2	*clefG2
*	*	*	*	*	*	*	*	*	*	*ITrd4c7	*ITrd4c7	*
*k[b-e-]	*k[b-e-]	*k[b-e-]	*	*k[b-e-]	*	*k[b-e-]	*	*k[b-e-]	*	*k[b-e-]	*k[b-e-]	*k[b-e-]
*B-:	*B-:	*B-:	*	*B-:	*	*B-:	*	*B-:	*	*B-:	*B-:	*B-:
*M2/4	*M2/4	*M2/4	*	*M2/4	*	*M2/4	*	*M2/4	*	*M2/4	*M2/4	*M2/4
!LO:TX:a:t=And:	!LO:TX:a:t=Andante	!LO:TX:a:t=And:	!	!LO:TX:a:t=Anda:	!	!LO:TX:a:t=Andante:	!	!LO:TX:a:t=P:problem=znaki zapisane oktawę wyżej	!	!LO:TX:b:i:t=Benedictus Tacet	!LO:TX:b:i:t=Benedictus Tacet	!LO:TX:a:t=Anda:
!	!	!	!	!	!	!LO:TX:a:t=problem:część dopisana innym tuszem	!	!	!	!	!	!
8r	16.dd\LL	16.ff\LL	.	8r	.	8r	.	8r	.	8ryy	8ryy	8r
.	32dd\JJk	32ff\JJk	.	.	.	.	.	.	.	.	.	.
=1	=1	=1	=1	=1	=1	=1	=1	=1	=1	=1	=1	=1
!	!LO:TX:a:t=problem: oznaczenie segno tylko vln 1 i vln 2	!LO:TX:a:t=problem: oznaczenie segno tylko vln 1 i vln 2	!	!LO:TX:a:t=Solo	!	!LO:TX:a:t=Solo	!	!LO:TX:a:t=Solo	!	!	!	!LO:N:vis=0
!	!LO:TX:a:t=[segno]	!LO:TX:a:t=[segno]	!	!LO:N:vis=00	!	!LO:N:vis=00	!	!LO:N:vis=00	!	!	!	!
8r	8.dd\L	8.ff\L	.	0r	.	0r	.	0r	.	2ryy	2ryy	1r
!LO:TX:a:t=problem: mixed beam	!	!	!	!	!	!	!	!	!	!	!	!
8B-\L	.	.	.	.	.	.	.	.	.	.	.	.
.	16ee-\Jk	16gg\Jk	.	.	.	.	.	.	.	.	.	.
8BB-/J	16ee-\LL	(16gg\LL	.	.	.	.	.	.	.	.	.	.
.	16dd\	16ff\	.	.	.	.	.	.	.	.	.	.
8r	16cc\	16ee-\	.	.	.	.	.	.	.	.	.	.
.	16b-\JJ	16dd\JJ)	.	.	.	.	.	.	.	.	.	.
=2	=2	=2	=2	=2	=2	=2	=2	=2	=2	=2	=2	=2
8r	8.cc\L	8.ee-\L	.	.	.	.	.	.	.	2ryy	2ryy	.
!LO:TX:a:t=problem: mixed beam	!	!	!	!	!	!	!	!	!	!	!	!
8F\L	.	.	.	.	.	.	.	.	.	.	.	.
.	16dd\Jk	16ff\Jk	.	.	.	.	.	.	.	.	.	.
8FF/J	16dd\LL	16ff\LL	.	.	.	.	.	.	.	.	.	.
.	16cc\	16ee-\	.	.	.	.	.	.	.	.	.	.
8r	16b-\	16dd\	.	.	.	.	.	.	.	.	.	.
.	16a\JJ	16cc\JJ	.	.	.	.	.	.	.	.	.	.
=3	=3	=3	=3	=3	=3	=3	=3	=3	=3	=3	=3	=3
8r	16b-\LL	16dd\LL	.	.	.	.	.	.	.	2ryy	2ryy	2r
.	32cc\L	32ee-\L	.	.	.	.	.	.	.	.	.	.
.	32b-\JJJ	32dd\JJJ	.	.	.	.	.	.	.	.	.	.
8D\L	32dd\LLL	(32ff\LLL	.	.	.	.	.	.	.	.	.	.
.	32cc\	32ee-\	.	.	.	.	.	.	.	.	.	.
.	32b-\	32dd\	.	.	.	.	.	.	.	.	.	.
.	32a\JJJ	32cc\JJJ	.	.	.	.	.	.	.	.	.	.
8E-\	8d/L	8b-\L)	.	.	.	.	.	.	.	.	.	.
8F\J	8c/J	8a\J	.	.	.	.	.	.	.	.	.	.
=4	=4	=4	=4	=4	=4	=4	=4	=4	=4	=4	=4	=4
!LO:TX:a:t=problem: mixed beam	!	!	!	!	!	!	!	!	!	!	!	!
8B-\L	(4c/	(4a/	.	.	.	.	.	.	.	2ryy	2ryy	4r
8F\	.	.	.	.	.	.	.	.	.	.	.	.
8BB-/J	8d/L)	8b-/L	.	.	.	.	.	.	.	.	.	8r
8r	16.d/L	16.f/L)	p	.	.	.	.	.	.	.	.	16.ff\LL
!	!	!	!	!	!	!	!	!	!	!	!	!LO:N:vis=16
.	32d/JJk	32f/JJk	.	.	.	.	.	.	.	.	.	32ff\JJk
=5	=5	=5	=5	=5	=5	=5	=5	=5	=5	=5	=5	=5
!	!	!	!	!LO:N:vis=00	!	!LO:N:vis=00	!	!LO:N:vis=00	!	!	!	!
8r	8.d/L	8.f/L	.	0r	.	0r	.	0r	.	2ryy	2ryy	8.ff\L
!LO:TX:a:t=problem: mixed beam	!	!	!	!	!	!	!	!	!	!	!	!
8B-\L	.	.	.	.	.	.	.	.	.	.	.	.
.	16e-/Jk	16g/Jk	.	.	.	.	.	.	.	.	.	16gg\Jk
8BB-/J	16e-/LL	16g/LL	.	.	.	.	.	.	.	.	.	16gg\LL
.	16d/	16f/	.	.	.	.	.	.	.	.	.	16ff\
8r	16c/	16e-/	.	.	.	.	.	.	.	.	.	16ee-\
.	16B-/JJ	16d/JJ	.	.	.	.	.	.	.	.	.	16dd\JJ
=6	=6	=6	=6	=6	=6	=6	=6	=6	=6	=6	=6	=6
8r	8.c/L	8e-/L	.	.	.	.	.	.	.	2ryy	2ryy	8.ee-\L
!LO:TX:a:t=problem: mixed beam	!	!	!	!	!	!	!	!	!	!	!	!
8F\L	.	8f/J	.	.	.	.	.	.	.	.	.	.
.	16d/Jk	.	.	.	.	.	.	.	.	.	.	16ff\Jk
8FF/J	16d/LL	16f/LL	.	.	.	.	.	.	.	.	.	16ff\LL
.	16c/	16e-/	.	.	.	.	.	.	.	.	.	16ee-\
8r	16B-/	16d/	.	.	.	.	.	.	.	.	.	16dd\
.	16A/JJ	16c/JJ	.	.	.	.	.	.	.	.	.	16cc\JJ
!	!LO:LB:g=original	!LO:LB:g=original	!	!	!	!	!	!	!	!	!	!
=7	=7	=7	=7	=7	=7	=7	=7	=7	=7	=7	=7	=7
*tremolo	*	*	*	*	*	*	*	*	*	*	*	*
8BB-/L	16B-/LL	16d/LL	.	.	.	.	.	.	.	2ryy	2ryy	16dd\LL
.	16d/	16f/	.	.	.	.	.	.	.	.	.	16ff\
8BB-/	16d/	16f/	.	.	.	.	.	.	.	.	.	16ff\
.	16B-/JJ	16d/JJ	.	.	.	.	.	.	.	.	.	16bb-\JJ
*	*Xtuplet	*Xtuplet	*	*	*	*	*	*	*	*	*	*Xtuplet
!	!LO:TX:a:t=problem:klamra łukowa, kropka zamiast cyfry:global	!LO:TX:a:t=problem:klamra łukowa, kropka zamiast cyfry	!	!	!	!	!	!	!	!	!	!LO:TX:a:t=problem:kropka pod klamrą łukową:global
8BB-/	24g/LL	24b-/LL	.	.	.	.	.	.	.	.	.	24bb-\LL
.	24f/	24a/	.	.	.	.	.	.	.	.	.	24aa\
.	24e-/JJ	24g/JJ	.	.	.	.	.	.	.	.	.	24gg\JJ
!	!LO:TX:a:t=problem:kropka pod klamrą łukową zamiast cyfry	!LO:TX:a:t=problem:klamra łukowa, kropka zamiast cyfry	!	!	!	!	!	!	!	!	!	!
8BB-/J	24d/LL	24f/LL	.	.	.	.	.	.	.	.	.	24ff\LL
.	24c/	24e-/	.	.	.	.	.	.	.	.	.	24ee-\
.	24B-/JJ	24d/JJ	.	.	.	.	.	.	.	.	.	24dd\JJ
!	!	!	!	!	!	!	!	!	!	!	!	!LO:LB:g=original
*Xtremolo	*	*	*	*	*	*	*	*	*	*	*	*
=8	=8	=8	=8	=8	=8	=8	=8	=8	=8	=8	=8	=8
!LO:TX:a:t=problem: mixed beam	!	!	!	!	!	!	!	!	!	!	!	!
8F\L	16c/LL	16e-/LL	.	.	.	.	.	.	.	2ryy	2ryy	32ee-\LLL
.	.	.	.	.	.	.	.	.	.	.	.	32dd\
.	16B-/J	16d/J	.	.	.	.	.	.	.	.	.	32cc\
.	.	.	.	.	.	.	.	.	.	.	.	32dd\JJ
8FF/J	8A/J	8c/J	.	.	.	.	.	.	.	.	.	8cc\J
4r	8r	8r	.	.	.	.	.	.	.	.	.	4r
.	16a\LL	16cc\LL	.	.	.	.	.	.	.	.	.	.
.	16b-\JJ	16dd\JJ	.	.	.	.	.	.	.	.	.	.
!LO:LB:g=original	!	!	!	!	!	!	!	!	!	!	!	!
=9	=9	=9	=9	=9	=9	=9	=9	=9	=9	=9	=9	=9
!	!	!	!	!LO:N:vis=00	!	!LO:N:vis=00	!	!LO:N:vis=00	!	!	!	!LO:N:vis=00
8r	16b-\LL	16dd\LL	.	0r	.	0r	.	0r	.	2ryy	2ryy	0r
.	16a\	16cc\	.	.	.	.	.	.	.	.	.	.
8B-\L	16cc\	16ee-\	.	.	.	.	.	.	.	.	.	.
.	16b-\JJ	16dd\JJ	.	.	.	.	.	.	.	.	.	.
!	!LO:TX:a:t=problem:niewidoczna adnotacja	!	!	!	!	!	!	!	!	!	!	!
8A\	16ee-\LL	16gg\LL	.	.	.	.	.	.	.	.	.	.
.	16dd\	16ff\	.	.	.	.	.	.	.	.	.	.
8B-\J	16gg\	16bb-\	.	.	.	.	.	.	.	.	.	.
.	16ff\JJ	16gg\JJ	.	.	.	.	.	.	.	.	.	.
=10	=10	=10	=10	=10	=10	=10	=10	=10	=10	=10	=10	=10
!LO:TX:a:t=problem: mixed beam	!	!	!	!	!	!	!	!	!	!	!	!
8F\L	8.dd\L	8.ff\L	.	.	.	.	.	.	.	2ryy	2ryy	.
8A\	.	.	.	.	.	.	.	.	.	.	.	.
.	16cc\Jk	16ee-\Jk	.	.	.	.	.	.	.	.	.	.
8B-\	8b-\L	8dd\L	.	.	.	.	.	.	.	.	.	.
8BB-/J	16a\L	16cc\L	.	.	.	.	.	.	.	.	.	.
.	16b-\JJ	16dd\JJ	.	.	.	.	.	.	.	.	.	.
=11	=11	=11	=11	=11	=11	=11	=11	=11	=11	=11	=11	=11
8r	16b-\LL	16dd\LL	.	.	.	.	.	.	.	2ryy	2ryy	.
.	16a\	16cc\	.	.	.	.	.	.	.	.	.	.
8B-\L	16cc\	16ee-\	.	.	.	.	.	.	.	.	.	.
.	16b-\JJ	16dd\JJ	.	.	.	.	.	.	.	.	.	.
8A\	16ee-\LL	16gg\LL	.	.	.	.	.	.	.	.	.	.
.	16dd\	16ff\	.	.	.	.	.	.	.	.	.	.
8B-\J	16gg\	16bb-\	.	.	.	.	.	.	.	.	.	.
.	16ff\JJ	16gg\JJ	.	.	.	.	.	.	.	.	.	.
=12	=12	=12	=12	=12	=12	=12	=12	=12	=12	=12	=12	=12
!LO:TX:a:t=problem: mixed beam	!	!	!	!	!	!	!	!	!	!	!	!
8F\L	8.dd\L	8.ff\L	.	.	.	.	.	.	.	2ryy	2ryy	.
8A\	.	.	.	.	.	.	.	.	.	.	.	.
.	16cc\Jk	16ee-\Jk	.	.	.	.	.	.	.	.	.	.
8B-\	8b-\L	8.dd\L	.	.	.	.	.	.	.	.	.	.
8BB-/J	8gg\J	.	.	.	.	.	.	.	.	.	.	.
.	.	16bb-\Jk	.	.	.	.	.	.	.	.	.	.
=13	=13	=13	=13	=13	=13	=13	=13	=13	=13	=13	=13	=13
!LO:TX:a:t=problem: mixed beam	!	!	!	!LO:N:vis=00	!	!LO:N:vis=00	!	!LO:N:vis=00	!	!	!	!LO:N:vis=00
8E-\L	16ff\LL	16aa-X\LL	.	0r	.	0r	.	0r	.	2ryy	2ryy	0r
.	16ee-\	16gg\	.	.	.	.	.	.	.	.	.	.
8G\	16dd\	16ff\	.	.	.	.	.	.	.	.	.	.
.	16cc\JJ	16ee-\JJ	.	.	.	.	.	.	.	.	.	.
8F\	8b-\L	16ee-\LL	.	.	.	.	.	.	.	.	.	.
.	.	16dd\	.	.	.	.	.	.	.	.	.	.
8FF/J	8a\J	16dd\	.	.	.	.	.	.	.	.	.	.
.	.	16cc\JJ	.	.	.	.	.	.	.	.	.	.
=14	=14	=14	=14	=14	=14	=14	=14	=14	=14	=14	=14	=14
8FF/L	4a\	(4cc#X\	.	.	.	.	.	.	.	2ryy	2ryy	.
8AA/	.	.	.	.	.	.	.	.	.	.	.	.
!	!LO:TX:a:t=problem: mixed beam	!LO:TX:a:t=problem: mixed beam	!	!	!	!	!	!	!	!	!	!
8BB-/J	8b-\L	8dd\L)	.	.	.	.	.	.	.	.	.	.
8r	16A/L	16cn/L	.	.	.	.	.	.	.	.	.	.
.	16B-/JJ	16d/JJ	.	.	.	.	.	.	.	.	.	.
!	!LO:LB:g=original	!	!	!	!	!	!	!	!	!	!	!
=15	=15	=15	=15	=15	=15	=15	=15	=15	=15	=15	=15	=15
8r	16c/LL	16e-/LL	.	.	.	.	.	.	.	2ryy	2ryy	.
.	16B-/	16d/	.	.	.	.	.	.	.	.	.	.
8BB-/L	16e-/	16g/	.	.	.	.	.	.	.	.	.	.
.	16d/JJ	16f/JJ	.	.	.	.	.	.	.	.	.	.
8AA/	16g/LL	16b-\LL	.	.	.	.	.	.	.	.	.	.
.	16f/	16a\	.	.	.	.	.	.	.	.	.	.
8BB-/J	16b-/	16dd\	.	.	.	.	.	.	.	.	.	.
.	16g/JJ	16b-\JJ	.	.	.	.	.	.	.	.	.	.
=16	=16	=16	=16	=16	=16	=16	=16	=16	=16	=16	=16	=16
!LO:TX:a:t=problem: mixed beam	!	!	!	!	!	!	!	!	!	!	!	!
8FF/L	8.d/L	8.f/L	.	.	.	.	.	.	.	2ryy	2ryy	.
8AA/	.	.	.	.	.	.	.	.	.	.	.	.
.	16c/Jk	16e-/Jk	.	.	.	.	.	.	.	.	.	.
8BB-/	8B-/L	8d/L	.	.	.	.	.	.	.	.	.	.
8B-\J	16A/L	16c/L	.	.	.	.	.	.	.	.	.	.
.	16B-/JJ	16d/JJ	.	.	.	.	.	.	.	.	.	.
!	!	!LO:LB:g=original	!	!	!	!	!	!	!	!	!	!
=17	=17	=17	=17	=17	=17	=17	=17	=17	=17	=17	=17	=17
!	!	!	!	!LO:N:vis=00	!	!LO:N:vis=00	!	!LO:N:vis=00	!	!	!	!LO:N:vis=00
8r	16c/LL	16e-/LL	.	0r	.	0r	.	0r	.	2ryy	2ryy	0r
.	16B-/	16d/	.	.	.	.	.	.	.	.	.	.
8BB-/L	16e-/	16g/	.	.	.	.	.	.	.	.	.	.
.	16d/JJ	16f/JJ	.	.	.	.	.	.	.	.	.	.
8AA/	16g/LL	16b-\LL	.	.	.	.	.	.	.	.	.	.
.	16f/	16a\	.	.	.	.	.	.	.	.	.	.
8BB-/J	16b-/	16dd\	.	.	.	.	.	.	.	.	.	.
.	16d/JJ	16b-\JJ	.	.	.	.	.	.	.	.	.	.
=18	=18	=18	=18	=18	=18	=18	=18	=18	=18	=18	=18	=18
!LO:TX:a:t=problem: mixed beam	!	!	!	!	!	!	!	!	!	!	!	!
8F\L	8.d/L	8.f/L	.	.	.	.	.	.	.	2ryy	2ryy	.
8FF/	.	.	.	.	.	.	.	.	.	.	.	.
.	16c/Jk	16e-/Jk	.	.	.	.	.	.	.	.	.	.
!	!LO:TX:a:t=problem: mixed beam	!LO:TX:a:t=problem: mixed beam	!	!	!	!	!	!	!	!	!	!
8BB-/	8B-/L	8d/L	.	.	.	.	.	.	.	.	.	.
8B-\J	16dd\L	16ff\L	.	.	.	.	.	.	.	.	.	.
.	16gg\JJ	16bb-\JJ	.	.	.	.	.	.	.	.	.	.
=19	=19	=19	=19	=19	=19	=19	=19	=19	=19	=19	=19	=19
!LO:TX:a:t=problem: mixed beam	!LO:TX:a:t=problem:kropka pod klamrą łukową zamiast cyfry	!LO:TX:a:t=problem:klamra łukowa, kropka zamiast cyfry	!	!	!	!	!	!	!	!	!	!
8E-\L	24ee-\LL	24gg\LL	.	.	.	.	.	.	.	2ryy	2ryy	.
.	24gg\	24bb-\	.	.	.	.	.	.	.	.	.	.
.	24ff\JJ	24aa\JJ	.	.	.	.	.	.	.	.	.	.
!	!LO:TX:a:t=problem:kropka pod klamrą łukową zamiast cyfry	!LO:TX:a:t=problem:klamra łukowa, kropka zamiast cyfry	!	!	!	!	!	!	!	!	!	!
8G\	24ee-\LL	24gg\LL	.	.	.	.	.	.	.	.	.	.
.	24dd\	24ff\	.	.	.	.	.	.	.	.	.	.
.	24cc\JJ	24ee-\JJ	.	.	.	.	.	.	.	.	.	.
8F\	8b-/L	8dd\L	.	.	.	.	.	.	.	.	.	.
8FF/J	8f/J	8cc\J	.	.	.	.	.	.	.	.	.	.
!LO:LB:g=original	!	!	!	!	!	!	!	!	!	!	!	!
=20	=20	=20	=20	=20	=20	=20	=20	=20	=20	=20	=20	=20
8BB-/	8f/L	8b-/L	.	.	.	.	.	.	.	2ryy	2ryy	.
8r	16d/L	16f/L	.	.	.	.	.	.	.	.	.	.
.	16e-/JJ	16g/JJ	.	.	.	.	.	.	.	.	.	.
8r	8d/L	8f/L	.	.	.	.	.	.	.	.	.	.
8FF/	8c/J	8e-/J	.	.	.	.	.	.	.	.	.	.
=21	=21	=21	=21	=21	=21	=21	=21	=21	=21	=21	=21	=21
!	!	!	!	!LO:N:vis=00	!	!LO:N:vis=00	!	!	!	!	!	!LO:N:vis=00
8BB-/L	4c/	(4e-;/	.	0r	.	0r	.	4r	.	2ryy	2ryy	0r
8E-/	.	.	.	.	.	.	.	.	.	.	.	.
!	!LO:TX:a:t=problem: mixed beam	!LO:TX:a:t=problem: mixed beam	!	!	!	!	!	!	!	!	!	!
8BB-/J	8B-;/L	8d/L)	.	.	.	.	.	8r	.	.	.	.
8r	16.dd\L	16ff\L	p	.	.	.	.	16.ff\	Be-	.	.	.
.	.	16ff\JJ	.	.	.	.	.	.	.	.	.	.
.	32dd\JJk	.	.	.	.	.	.	32ff\	-ne-	.	.	.
=22	=22	=22	=22	=22	=22	=22	=22	=22	=22	=22	=22	=22
!LO:TX:a:t=problem: mixed beam	!	!	!	!	!	!	!	!	!	!	!	!
8r	8.dd\L	8.ff\L	.	.	.	.	.	8.ff\L	-dic-	2ryy	2ryy	.
8B-\L	.	.	.	.	.	.	.	.	.	.	.	.
.	16ee-\Jk	16gg\Jk	.	.	.	.	.	16gg\Jk	.	.	.	.
8BB-/J	16ee-\LL	16gg\LL	.	.	.	.	.	16gg\LL	-tus	.	.	.
.	16dd\	16ff\	.	.	.	.	.	16ff\JJ	.	.	.	.
8r	16cc\	16ee-\	.	.	.	.	.	16ee-\LL	qui	.	.	.
.	16b-\JJ	16dd\JJ	.	.	.	.	.	16dd\JJ	.	.	.	.
!	!LO:LB:g=original	!	!	!	!	!	!	!	!	!	!	!
=23	=23	=23	=23	=23	=23	=23	=23	=23	=23	=23	=23	=23
8r	8.cc\L	8.ee-\L	.	.	.	.	.	8.ee-\L	ve-	2ryy	2ryy	.
!LO:TX:a:t=problem: mixed beam	!	!	!	!	!	!	!	!	!	!	!	!
8F\L	.	.	.	.	.	.	.	.	.	.	.	.
.	16dd\Jk	16ff\Jk	.	.	.	.	.	16ff\Jk	.	.	.	.
8FF/J	16dd\LL	16ff\LL	.	.	.	.	.	16ff\LL	-nit	.	.	.
.	16cc\	16ee-\	.	.	.	.	.	16ee-\JJ	.	.	.	.
8r	16b-\	16dd\	.	.	.	.	.	16dd\LL	in	.	.	.
.	16a\JJ	16cc\JJ	.	.	.	.	.	16cc\JJ	.	.	.	.
=24	=24	=24	=24	=24	=24	=24	=24	=24	=24	=24	=24	=24
8r	8b-\L	8dd\L	.	.	.	.	.	8dd\	No-	2ryy	2ryy	.
8D\L	(32dd\LL	(32ff\LL	.	.	.	.	.	16ee-\	-mi-	.	.	.
.	32cc\	32ee-\	.	.	.	.	.	.	.	.	.	.
.	32b-\	32dd\	.	.	.	.	.	16cc\	-ne	.	.	.
.	32a\JJJ)	32cc\JJJ)	.	.	.	.	.	.	.	.	.	.
8E-\	(16e-/LL	16cc\LL	.	.	.	.	.	16cc\LL	do-	.	.	.
.	16d/)	16b-\	.	.	.	.	.	16b-\JJ	.	.	.	.
8F\J	(16d/	16b-\	.	.	.	.	.	16b-\LL	-mi-	.	.	.
.	16c/JJ)	16a\JJ	.	.	.	.	.	16a\JJ	.	.	.	.
!	!	!	!	!	!	!	!	!LO:LB:g=original	!	!	!	!
=25	=25	=25	=25	=25	=25	=25	=25	=25	=25	=25	=25	=25
!	!	!	!	!	!	!	!	!	!	!	!	!LO:N:vis=00
8B-\L	(4c/	(4a/	.	4r	.	4r	.	4a\	.	2ryy	2ryy	0r
8F\	.	.	.	.	.	.	.	.	.	.	.	.
8BB-\J	8d/L)	8b-/L	.	8r	.	8r	.	8b-\	-ni	.	.	.
8r	16.d/L	16f/L)	.	16.F\	Be-	16.F/	Be-	8r	.	.	.	.
.	.	16f/JJ	.	.	.	.	.	.	.	.	.	.
.	32d/JJk	.	.	32F\	-ne-	32F/	-ne-	.	.	.	.	.
!	!	!LO:LB:g=original	!	!	!	!	!	!	!	!	!	!
=26	=26	=26	=26	=26	=26	=26	=26	=26	=26	=26	=26	=26
!	!	!	!	!	!	!	!	!LO:N:vis=0	!	!	!	!
8r	8.d/L	8.f/L	.	8.F\L	-dic-	8.F/L	-di-	1r	.	2ryy	2ryy	.
!LO:TX:a:t=problem: mixed beam	!	!	!	!	!	!	!	!	!	!	!	!
8B-\L	.	.	.	.	.	.	.	.	.	.	.	.
.	16e-/Jk	16g/Jk	.	16G\Jk	.	16G/Jk	.	.	.	.	.	.
8BB-/J	16e-/LL	16g/LL	.	16G\LL	-tus	16G/LL	-ctus	.	.	.	.	.
.	16d/	16f/	.	16F\JJ	.	16F/JJ	.	.	.	.	.	.
8r	16c/	16e-/	.	16E-\LL	qui	16E-/LL	qui	.	.	.	.	.
.	16B-/JJ	16d/JJ	.	16D\JJ	.	16D/JJ	.	.	.	.	.	.
=27	=27	=27	=27	=27	=27	=27	=27	=27	=27	=27	=27	=27
8r	8.c/L	8.e-/L	.	8.E-\L	ve-	8.E-/L	ve-	.	.	2ryy	2ryy	.
!LO:TX:a:t=problem: mixed beam	!	!	!	!	!	!	!	!	!	!	!	!
8F\L	.	.	.	.	.	.	.	.	.	.	.	.
.	16d/Jk	16f/Jk	.	16F\Jk	.	16F/Jk	.	.	.	.	.	.
8FF/J	16d/LL	16f/LL	.	16F\LL	-nit	16F/LL	-nit	.	.	.	.	.
.	16c/	16e-/	.	16E-\JJ	.	16E-/JJ	.	.	.	.	.	.
8r	16B-/	16d/	.	16D\LL	in	16D/LL	in	.	.	.	.	.
.	16A/JJ	16c/JJ	.	16C\JJ	.	16C/JJ	.	.	.	.	.	.
=28	=28	=28	=28	=28	=28	=28	=28	=28	=28	=28	=28	=28
*tremolo	*	*	*	*	*	*	*	*	*	*	*	*
8BB-/L	16B-/LL	16d/LL	.	16D\LL	no-	16D/LL	no-	2r	.	2ryy	2ryy	.
.	16d/	16f/	.	16F\	.	16F/	.	.	.	.	.	.
8BB-/	16d/	16f/	.	16F\	.	16F/	.	.	.	.	.	.
.	16f/JJ	16b-/JJ	.	16B-\JJ	.	16B-/JJ	.	.	.	.	.	.
!	!LO:TX:a:t=problem:kropka pod klamrą łukową zamiast cyfry	!LO:TX:a:t=problem:klamra łukowa, kropka zamiast cyfry	!	!	!	!	!	!	!	!	!	!
8BB-/	24f/LL	24b-/LL	.	16B-\LL	-mi-	16B-/LL	-mi-	.	.	.	.	.
.	24e-/	24a/	.	.	.	.	.	.	.	.	.	.
.	.	.	.	16F\JJ	.	16F/JJ	.	.	.	.	.	.
.	24d/JJ	24g/JJ	.	.	.	.	.	.	.	.	.	.
!	!LO:TX:a:t=problem:kropka pod klamrą łukową zamiast cyfry	!LO:TX:a:t=problem:klamra łukowa, kropka zamiast cyfry	!	!	!	!	!	!	!	!	!	!
8BB-/J	24d/LL	24f/LL	.	16E-\LL	-ne	16E-/LL	-ne	.	.	.	.	.
.	24c/	24e-/	.	.	.	.	.	.	.	.	.	.
.	.	.	.	16D\JJ	.	16D/JJ	.	.	.	.	.	.
.	24B-/JJ	24d/JJ	.	.	.	.	.	.	.	.	.	.
!	!	!	!	!LO:LB:g=original	!	!	!	!	!	!	!	!
*Xtremolo	*	*	*	*	*	*	*	*	*	*	*	*
=29	=29	=29	=29	=29	=29	=29	=29	=29	=29	=29	=29	=29
!LO:TX:a:t=problem: mixed beam	!	!	!	!	!	!	!	!	!	!	!	!LO:N:vis=00
8F\L	(32c/LLL	(32e-/LLL	.	16D/	Do-	16D/	Do-	4r	.	2ryy	2ryy	0r
.	32B-/	32d/	.	.	.	.	.	.	.	.	.	.
.	32A/	32c/	.	16C/	-mi-	16C/	-mi-	.	.	.	.	.
.	32B-/JJ)	32d/JJ)	.	.	.	.	.	.	.	.	.	.
8FF/J	8A/J	8c/J	.	8C/	-ni	8C/	-ni	.	.	.	.	.
4r	4r	4r	.	8r	.	8r	.	8r	.	.	.	.
.	.	.	.	16A\	Be-	16A/	Be-	16.cc\	Be-	.	.	.
.	.	.	.	16A\	-ne-	16A/	-ne-	.	.	.	.	.
.	.	.	.	.	.	.	.	32cc\	-ne-	.	.	.
=30	=30	=30	=30	=30	=30	=30	=30	=30	=30	=30	=30	=30
8r	8r	8r	.	8.A\L	-dic-	8.A/L	-dic-	8.cc\L	-dic-	2ryy	2ryy	.
!LO:TX:a:t=problem: mixed beam	!	!	!	!	!	!	!	!	!	!	!	!
8F\L	8c/L 8a	8ff\L	.	.	.	.	.	.	.	.	.	.
.	.	.	.	16B-\Jk	.	16B-/Jk	.	16dd\Jk	.	.	.	.
8FF/J	8c/J 8a	8ff\J	.	16A\LL	-tus	16A/LL	-tus	16cc\LL	-tus	.	.	.
.	.	.	.	16c\JJ	.	16c/JJ	.	16ff\JJ	.	.	.	.
!	!	!	!	!	!	!LO:LB:g=original	!	!	!	!	!	!
8r	8r	8r	.	16f\LL	qui	16f\LL	qui	16aa\LL	qui	.	.	.
.	.	.	.	16A\JJ	.	16A\JJ	.	16ff\JJ	.	.	.	.
!LO:PB:g=original	!LO:LB:g=original	!	!	!	!	!	!	!	!	!	!	!
=31	=31	=31	=31	=31	=31	=31	=31	=31	=31	=31	=31	=31
8r	8r	8r	.	16A\LL	ve-	16A/LL	ve-	16ff\LL	ve-	2ryy	2ryy	.
.	.	.	.	16B-\JJ	.	16B-/JJ	.	16een\JJ	.	.	.	.
!LO:TX:a:t=problem: mixed beam	!	!	!	!	!	!	!	!	!	!	!	!
8c\L	8g/L	8een\L	.	8B-\	-nit	8A/	-nit	8ff\	-nit	.	.	.
8C/J	8g/J	8ee\J	.	8r	.	8r	.	8r	.	.	.	.
8r	8r	8r	.	8en\	in	8en\	in	8gg\	in	.	.	.
=32	=32	=32	=32	=32	=32	=32	=32	=32	=32	=32	=32	=32
!	!	!	!	!LO:TX:a:t=sic:s=8.en	!	!	!	!	!	!	!	!
8r	8r	8r	.	8.e-\L	No-	8.e-\L	no-	8.gg\L	No-	2ryy	2ryy	.
!LO:TX:a:t=problem: mixed beam	!	!	!	!	!	!	!	!	!	!	!	!
8c\L	8een\L	8gg\L	.	.	.	.	.	.	.	.	.	.
.	.	.	.	16f\Jk	.	16f\Jk	.	16aa\Jk	.	.	.	.
8C/J	8ee\J	8gg\J	.	16g\LL	-mi-	16g\LL	-mi-	16bb-\LL	-mi-	.	.	.
.	.	.	.	16en\JJ	.	16en\JJ	.	16gg\JJ	.	.	.	.
8r	8r	8r	.	16c\LL	-ne	16d\LL	-ne	16ff\	-ne	.	.	.
.	.	.	.	16B-\JJ	.	16c\JJ	.	16een\	.	.	.	.
=33	=33	=33	=33	=33	=33	=33	=33	=33	=33	=33	=33	=33
!	!	!	!	!	!	!	!	!	!	!	!	!LO:N:vis=00
8r	8r	8r	.	16A\	Do-	16A/	Do-	16ff\	Do-	2ryy	2ryy	0r
.	.	.	.	16A\	-mi-	16A/	-mi-	16cc\	-mi-	.	.	.
*	*^	*	*	*	*	*	*	*	*	*	*	*
!LO:TX:a:t=problem: mixed beam	!	!	!	!	!	!	!	!	!	!	!	!	!
8F\L	8cc/L	8a\L	8ff\	.	8A\	-ni	8A/	-ni	8cc\	-ni	.	.	.
8FF/J	8cc/J	8a\J	4ff\	.	8r	.	8r	.	8r	.	.	.	.
*	*	*	*	*	*Xtuplet	*	*Xtuplet	*	*Xtuplet	*	*	*	*
!	!	!	!	!	!LO:TX:a:t=problem:brak oznaczenia trioli	!	!LO:TX:a:t=problem:brak oznaczenia triol	!	!LO:TX:a:t=problem:klamra łukowa, kropka zamiast cyfry	!	!	!	!
8r	8r	8r	.	.	24A\LL	in	24A/LL	in	24cc\LL	in	.	.	.
.	.	.	.	.	24B-\	.	24B-/	.	24dd\	.	.	.	.
.	.	.	.	.	24A\JJ	.	24A/JJ	.	24cc\JJ	.	.	.	.
*	*v	*v	*	*	*	*	*	*	*	*	*	*	*
!	!	!	!	!LO:LB:g=original	!	!	!	!LO:LB:g=original	!	!	!	!
=34	=34	=34	=34	=34	=34	=34	=34	=34	=34	=34	=34	=34
*2\right	*2\right	*2\right	*	*	*	*	*	*	*	*	*	*
*tremolo	*tremolo	*tremolo	*	*	*	*	*	*	*	*	*	*
*tremolo	*	*	*	*	*	*	*	*	*	*	*	*
*	*tremolo	*	*	*	*	*	*	*	*	*	*	*
*	*	*tremolo	*	*	*	*	*	*	*	*	*	*
!LO:TX:a:t=problem: półnuty dolne caudy z prawej strony:global	!LO:TX:a:t=problem: półnuty dolne caudy z prawej strony:global	!	!	!	!	!	!	!	!	!	!	!
8F\L	8cc\L	8aa\L	.	8F\L	no-	16F/LL	no-	8a\L	No-	2ryy	2ryy	.
.	.	.	.	.	.	16A/	.	.	.	.	.	.
!	!	!	!	!LO:TX:a:t=problem:brak oznaczenia trioli	!	!	!	!LO:TX:a:t=problem:klamra łukowa, kropka zamiast cyfry	!	!	!	!
8F\	8cc\	8aa\	.	24A\L	.	16B-/	.	24cc\L	.	.	.	.
.	.	.	.	24B-\	.	.	.	24dd\	.	.	.	.
.	.	.	.	.	.	16A/JJ	.	.	.	.	.	.
.	.	.	.	24A\JJ	.	.	.	24cc\JJ	.	.	.	.
8F\	8cc\	8aa\	.	16c\LL	.	16c\LL	.	16ff\LL	.	.	.	.
.	.	.	.	16f\	.	16f\	.	16aa\	.	.	.	.
8F\J	8cc\J	8aa\J	.	16c\	.	16c\	.	16ff\	.	.	.	.
.	.	.	.	16A\JJ	.	16A\JJ	.	16cc\JJ	.	.	.	.
=35	=35	=35	=35	=35	=35	=35	=35	=35	=35	=35	=35	=35
8F\L	8cc\L	8aa\L	.	8.A\L	.	8.A/L	.	8.cc\L	.	2ryy	2ryy	.
8F\	8cc\	8aa\	.	.	.	.	.	.	.	.	.	.
.	.	.	.	16G\Jk	.	16G/Jk	.	16b-\Jk	.	.	.	.
8F\	8cc\	8aa\	.	16F\LL	.	16F/LL	.	16a\LL	.	.	.	.
.	.	.	.	16G\	.	16G/	.	16b-\	.	.	.	.
8F\J	8cc\J	8aa\J	.	16A\	.	16A/	.	16cc\	.	.	.	.
.	.	.	.	16F\JJ	.	16F/JJ	.	16a\JJ	.	.	.	.
=36	=36	=36	=36	=36	=36	=36	=36	=36	=36	=36	=36	=36
8C/L	8een\L	8gg\L	.	16G\LL	.	16G/LL	.	16b-\LL	.	2ryy	2ryy	.
.	.	.	.	16B-\	.	16B-/	.	16een\	.	.	.	.
8C/	8een\	8gg\	.	16c\	.	16c/	.	16ff\	.	.	.	.
.	.	.	.	16B-\JJ	.	16B-/JJ	.	16ee\JJ	.	.	.	.
8C/	8een\	8gg\	.	16en\LL	.	16en\LL	.	16gg\LL	.	.	.	.
.	.	.	.	16g\	.	16g\	.	16bb-\	.	.	.	.
8C/J	8een\J	8gg\J	.	16e\	.	16e\	.	16gg\	.	.	.	.
.	.	.	.	16B-\JJ	.	16B-\JJ	.	16ee\JJ	.	.	.	.
=37	=37	=37	=37	=37	=37	=37	=37	=37	=37	=37	=37	=37
!	!LO:TX:a:t=sic:s=2een	!	!	!	!	!	!	!	!	!	!	!LO:N:vis=00
8C/L	8ee-\L	8gg\L	.	8.G\	.	8.G/	.	8.b-\	.	2ryy	2ryy	0r
8C/	8ee-\	8gg\	.	.	.	.	.	.	.	.	.	.
.	.	.	.	16F\	-mi-	16F/	-mi-	16a\	-mi-	.	.	.
8C/	8ee-\	8gg\	.	8E-\	-ne	8E-/	-ne	8g\	-ne	.	.	.
8C/J	8ee-\J	8gg\J	.	8G\	in	8G/	in	8b-\	in	.	.	.
!	!	!	!	!	!	!LO:LB:g=original	!	!	!	!	!	!
*Xtremolo	*Xtremolo	*Xtremolo	*	*	*	*	*	*	*	*	*	*
=38	=38	=38	=38	=38	=38	=38	=38	=38	=38	=38	=38	=38
4F\	8a/	8ff\	.	16F\LL	no-	16G/LL	no-	16a\LL	no-	2ryy	2ryy	.
.	.	.	.	16A\	.	16A/	.	16cc\	.	.	.	.
.	8r	8r	.	16B-\	.	16B-/	.	16dd\	.	.	.	.
.	.	.	.	16G\JJ	.	16G/JJ	.	16een\JJ	.	.	.	.
4r	4r	4r	.	32A\LLL	.	32A/LLL	.	32ff\LLL	.	.	.	.
.	.	.	.	32f\	.	32f/	.	32aa\	.	.	.	.
.	.	.	.	32en\	.	32en/	.	32gg\	.	.	.	.
.	.	.	.	32d\JJJ	.	32d/JJJ	.	32ff\JJJ	.	.	.	.
.	.	.	.	32c\LLL	.	32c/LLL	.	32ee\LLL	.	.	.	.
.	.	.	.	32d\	.	32d/	.	32ff\	.	.	.	.
.	.	.	.	32c\	.	32c/	.	32ee\	.	.	.	.
.	.	.	.	32B-\JJJ	.	32B-/JJJ	.	32dd\JJJ	.	.	.	.
!	!	!LO:LB:g=original	!	!LO:LB:g=original	!	!	!	!	!	!	!	!
=39	=39	=39	=39	=39	=39	=39	=39	=39	=39	=39	=39	=39
!	!	!LO:TX:a:t=sic:s=8een	!	!	!	!	!	!	!	!	!	!
8En\L	8g/L	8ee-\L	.	8.A\	.	8.A/	.	8.cc\	.	2ryy	2ryy	.
8C\	8g/	8ee-\	.	.	.	.	.	.	.	.	.	.
.	.	.	.	16G\	-mi-	16G/	-mi-	16b-\	-mi-	.	.	.
8F\J	8a/J	8ff\J	.	8F\	-ne	8F/	-ne	8a\	-ne	.	.	.
8r	8r	8r	.	8A\	in	8A/	in	8cc\	in	.	.	.
!	!	!	!	!	!	!	!	!LO:LB:g=original	!	!	!	!
=40	=40	=40	=40	=40	=40	=40	=40	=40	=40	=40	=40	=40
!LO:TX:a:t=1	!	!LO:TX:a:t=1	!	!	!	!	!	!	!	!	!	!
2r	2r	2r	.	8B-\	No-	8B-\	no-	8dd\	No-	2ryy	2ryy	.
.	.	.	.	16d\	-mi-	16d\	-mi-	16bb-\	-mi-	.	.	.
.	.	.	.	16B-\	-ne	16B-\	-ne	16gg\	.	.	.	.
.	.	.	.	8c\	Do-	8c\	Do-	16gg\LL	-ne	.	.	.
.	.	.	.	.	.	.	.	16ff\JJ	.	.	.	.
.	.	.	.	8C/	-mi-	8C/	-mi-	16ff\LL	Do-	.	.	.
.	.	.	.	.	.	.	.	16een\JJ	-mi-	.	.	.
=41	=41	=41	=41	=41	=41	=41	=41	=41	=41	=41	=41	=41
!LO:TX:a:t=problem: mixed beam	!	!	!	!	!	!	!	!LO:TX:a:t=sic:s=en	!	!	!	!
8F\L	8r	8r	.	8F\	-ni	4F/	-ni	8ee-\L	-ni	2ryy	2ryy	8r
8FF/J	16f/LL	(16a\LL	.	8r	.	.	.	8ff\J	.	.	.	16aa\LL
.	16g/JJ	16b-\JJ)	.	.	.	.	.	.	.	.	.	16bb-\JJ
4r	16a/LL	(16cc\LL	.	4r	.	4r	.	4r	.	.	.	16ccc\LL
.	16f/	16a\)	.	.	.	.	.	.	.	.	.	16aa\
.	16b-/	(16dd\	.	.	.	.	.	.	.	.	.	16ddd\
.	16g/JJ	16b-\JJ)	.	.	.	.	.	.	.	.	.	16bb-\JJ
=42	=42	=42	=42	=42	=42	=42	=42	=42	=42	=42	=42	=42
!	!	!	!	!LO:TX:a:t=1.	!	!	!	!LO:TX:a:t=1.	!	!	!	!
8FF/	16a/LL	(16cc\LL	.	2r	.	2r	.	2r	.	2ryy	2ryy	16ccc\LL
.	16f/	16a\)	.	.	.	.	.	.	.	.	.	16aa\
8r	16b-/	(16dd\	.	.	.	.	.	.	.	.	.	16ddd\
.	16g/JJ	16b-\JJ)	.	.	.	.	.	.	.	.	.	16bb-\JJ
!	!LO:TX:a:t=problem:kropka pod klamrą łukową zamiast cyfry	!LO:TX:a:t=problem:kropka pod klamrą łukową zamiast cyfry	!	!	!	!	!	!	!	!	!	!LO:TX:a:t=problem:kropka pod klamrą łukową
4r	24a\LL	24cc\LL	.	.	.	.	.	.	.	.	.	24ccc\LL
.	24b-\	24dd\	.	.	.	.	.	.	.	.	.	24ddd\
.	24cc\JJ	24een\JJ	.	.	.	.	.	.	.	.	.	24eeen\JJ
!	!LO:TX:a:t=problem:kropka pod klamrą łukową zamiast cyfry	!	!	!	!	!	!	!	!	!	!	!LO:TX:a:t=problem:kropka pod klamrą łukową
.	24dd\LL	(32gg\LLL	.	.	.	.	.	.	.	.	.	24fff\LL
.	.	32ff\	.	.	.	.	.	.	.	.	.	.
.	24cc\	.	.	.	.	.	.	.	.	.	.	24eee\
.	.	32ee\	.	.	.	.	.	.	.	.	.	.
.	24b-\JJ	.	.	.	.	.	.	.	.	.	.	24ddd\JJ
.	.	32dd\JJJ)	.	.	.	.	.	.	.	.	.	.
!	!LO:LB:g=original	!	!	!	!	!	!	!	!	!	!	!
=43	=43	=43	=43	=43	=43	=43	=43	=43	=43	=43	=43	=43
8En\L	16a/LL	16cc\LL	.	4r	.	4r	.	4r	.	2ryy	2ryy	16ccc\LL
.	16b-/	16dd\	.	.	.	.	.	.	.	.	.	16ddd\
8C\J	16a/	16cc\	.	.	.	.	.	.	.	.	.	16ccc\
.	16g/JJ	16b-\JJ	.	.	.	.	.	.	.	.	.	16bb-\JJ
8F\	8f/	8a/	.	8r	.	8r	.	8r	.	.	.	8aa\
8r	8r	8r	.	8A\	in	8A/	in	16aa\LL	in	.	.	8r
.	.	.	.	.	.	.	.	16ff\JJ	.	.	.	.
=44	=44	=44	=44	=44	=44	=44	=44	=44	=44	=44	=44	=44
!LO:TX:a:t=problem: mixed beam	!	!	!	!	!	!	!	!	!	!	!	!LO:TX:a:t=1.
8c\L	8cc\L	8ff\L	.	8B-\	No-	8B-/	no-	16dd\LL	No-	2ryy	2ryy	2r
.	.	.	.	.	.	.	.	16b-\JJ	.	.	.	.
8c\	8cc\	8ff\	.	16d\	-mi-	16d/	-mi-	16bb-\	-mi-	.	.	.
.	.	.	.	16B-\	-ne	16B-/	-ne	16gg\	.	.	.	.
8C/	8b-\	8een\	.	8c\	Do-	8c\	Do-	16gg\LL	-ne	.	.	.
.	.	.	.	.	.	.	.	16ff\JJ	.	.	.	.
8C/J	8b-\J	8ee\J	.	8C/	-mi-	8C/	-mi-	16ff\LL	Do-	.	.	.
.	.	.	.	.	.	.	.	16een\JJ	-mi-	.	.	.
!LO:LB:g=original	!	!	!	!	!	!	!	!	!	!	!	!
=45	=45	=45	=45	=45	=45	=45	=45	=45	=45	=45	=45	=45
!LO:TX:a:t=problem: mixed beam	!	!	!	!	!	!	!	!LO:TX:a:t=sic:s=en	!	!	!	!
8F\L	8a/L	8ff\L	.	8F\	-ni	8F/	-ni	8ee-\L	-ni	2ryy	2ryy	8r
8FF/J	16f/L	16a\L	.	8r	.	8r	.	8ff\J	.	.	.	16aa\LL
.	16g/JJ	16b-\JJ	.	.	.	.	.	.	.	.	.	16bb-\JJ
!	!	!	!	!	!	!	!	!	!	!	!	!LO:LB:g=original
4r	16a/LL	16cc\LL	.	4r	.	4r	.	4r	.	.	.	16ccc\LL
.	16f/	16a\	.	.	.	.	.	.	.	.	.	16aa\
.	16b-/	16dd\	.	.	.	.	.	.	.	.	.	16ddd\
.	16g/JJ	16b-\JJ	.	.	.	.	.	.	.	.	.	16ccc\JJ
!	!	!	!	!	!	!LO:LB:g=original	!	!	!	!	!	!
=46	=46	=46	=46	=46	=46	=46	=46	=46	=46	=46	=46	=46||
!	!	!	!	!LO:TX:a:t=1	!	!LO:TX:a:t=1.	!	!LO:TX:a:t=1.	!	!	!	!
8AA/	16a/LL	16cc\LL	.	2r	.	2r	.	2r	.	2ryy	2ryy	16ccc\LL
.	16f/	16a\	.	.	.	.	.	.	.	.	.	16aa\
8r	16b-/	16dd\	.	.	.	.	.	.	.	.	.	16ddd\
.	16g/JJ	16b-\JJ	.	.	.	.	.	.	.	.	.	16bb-\JJ
!	!LO:TX:a:t=problem:kropka pod klamrą łukową zamiast cyfry	!LO:TX:a:t=problem:kropka pod klamrą łukową zamiast cyfry	!	!	!	!	!	!	!	!	!	!LO:TX:a:t=problem:kropka pod klamrą łukową
4r	24a\LL	24cc\LL	.	.	.	.	.	.	.	.	.	24ccc\LL
.	24b-\	24dd\	.	.	.	.	.	.	.	.	.	24ddd\
.	24cc\JJ	24een\JJ	.	.	.	.	.	.	.	.	.	24eeen\JJ
!	!LO:TX:a:t=problem:kropka pod klamrą łukową zamiast cyfry	!	!	!	!	!	!	!	!	!	!	!LO:TX:a:t=problem:kropka pod klamrą łukową
.	24dd\LL	(32gg\LLL	.	.	.	.	.	.	.	.	.	24fff\LL
.	.	32ff\	.	.	.	.	.	.	.	.	.	.
.	24cc\	.	.	.	.	.	.	.	.	.	.	24eee\
.	.	32ee\	.	.	.	.	.	.	.	.	.	.
.	24b-\JJ	.	.	.	.	.	.	.	.	.	.	24ddd\JJ
.	.	32dd\JJJ)	.	.	.	.	.	.	.	.	.	.
!	!	!	!	!LO:LB:g=original	!	!	!	!	!	!	!	!
=47	=47	=47	=47	=47	=47	=47	=47	=47	=47	=47	=47	=47
8En\L	16a/LL	16cc\LL	.	4r	.	4r	.	4r	.	2ryy	2ryy	16ccc\LL
.	16b-/	16dd\	.	.	.	.	.	.	.	.	.	16ddd\
8C\	16a/	16cc\	.	.	.	.	.	.	.	.	.	16ccc\
.	16g/JJ	16b-\JJ	.	.	.	.	.	.	.	.	.	16bb-\JJ
8E\J	8f/	8a/	.	8r	.	8r	.	8r	.	.	.	8aa\
8r	8r	8r	.	8A\	in	8A/	in	16aa\LL	in	.	.	8r
.	.	.	.	.	.	.	.	16ff\JJ	.	.	.	.
!	!	!LO:LB:g=original	!	!	!	!	!	!LO:LB:g=original	!	!	!	!
=48	=48	=48	=48	=48	=48	=48	=48	=48	=48	=48	=48	=48
!	!	!	!	!	!	!	!	!	!	!	!	!LO:TX:a:t=problem:BRAK TAKTU -POWINNO BYĆ 5 TAKTÓW PAUZY
!	!	!	!	!	!	!	!	!	!	!	!	!LO:TX:a:t=4.
!LO:TX:a:t=problem: mixed beam	!	!	!	!	!	!	!	!	!	!	!	!LO:N:vis=00
8c\L	8cc\L	8ff\L	.	8B-\	No-	8B-/	No-	16dd\LL	No-	2ryy	2ryy	0r
.	.	.	.	.	.	.	.	16b-\JJ	.	.	.	.
8c\	8cc\	8ff\	.	16d\	-mi-	16d/	-mi-	16bb-\	-mi-	.	.	.
.	.	.	.	16B-\	-ne	16B-/	-ne	16gg\	.	.	.	.
8C/	8b-\	8een\	.	8c\	Do-	8c\	Do-	16gg\LL	-ne	.	.	.
.	.	.	.	.	.	.	.	16ff\JJ	.	.	.	.
8C/J	8b-\J	8ee\J	.	8C\	-mi-	8C/	-mi-	16ff\LL	Do-	.	.	.
.	.	.	.	.	.	.	.	16ee-\JJ	-mi-	.	.	.
=49	=49	=49	=49	=49	=49	=49	=49	=49	=49	=49	=49	=49
8F\	8a/	8ff\	.	8F\	-ni	8F/	-ni	8ff\	-ni	2ryy	2ryy	.
8r	8r	8r	.	16f\LL	in	16f\LL	in	16aa\LL	in	.	.	.
!	!	!	!	!	!	!LO:TX:a:t=d	!	!	!	!	!	!
.	.	.	.	16d\JJ	.	16d\JJ	.	16ff\JJ	.	.	.	.
8C\	8g/	8een\	.	16d\LL	No-	16d\LL	no-	16ff\LL	No-	.	.	.
!	!	!	!	!	!	!	!	!LO:TX:a:t=sic:s=16een	!	!	!	!
.	.	.	.	16c\	.	16c\	.	16ee-\	.	.	.	.
8r	8r	8r	.	16d\	.	16d\	.	16ff\	.	.	.	.
.	.	.	.	16B-\JJ	.	16c\JJ	.	16dd\JJ	.	.	.	.
=50	=50	=50	=50	=50	=50	=50	=50	=50	=50	=50	=50	=50
8F\	8r	8r	.	16B-\LL	.	16B-/LL	.	16dd\LL	.	2ryy	2ryy	.
.	.	.	.	16A\	.	16A/	.	16cc\	.	.	.	.
8r	8a/	8cc\	.	16B-\	.	16B-/	.	16dd\	.	.	.	.
.	.	.	.	16G\JJ	.	16G/JJ	.	16b-\JJ	.	.	.	.
8C\	8r	8r	.	16G\LL	.	16G/LL	.	16b-\LL	.	.	.	.
.	.	.	.	16F\	.	16F/	.	16a\	.	.	.	.
8r	8g/	8b-\	.	16F\	.	16F/	.	16a\	.	.	.	.
.	.	.	.	16E-\JJ	.	16E-/JJ	.	16g\JJ	.	.	.	.
!	!LO:LB:g=original	!	!	!	!	!	!	!	!	!	!	!
=51	=51	=51	=51	=51	=51	=51	=51	=51	=51	=51	=51	=51
8F\	8f/	8a\	.	16F'\LL	.	16F'/LL	.	16a'\LL	.	2ryy	2ryy	.
.	.	.	.	16A'\	.	16A'/	.	16cc'\	.	.	.	.
8r	8r	8r	.	16B-'\	.	16B-'/	.	16dd'\	.	.	.	.
.	.	.	.	16c'\JJ	.	16c'/JJ	.	16ee-'\JJ	.	.	.	.
4r	4r	4r	.	16d'\LL	-mi-	16d'\LL	.	16ff'\LL	-mi-	.	.	.
.	.	.	.	16en'\	.	16en'\	.	16gg'\	.	.	.	.
.	.	.	.	16f'\	.	16f'\	-mi-	16aa'\	.	.	.	.
.	.	.	.	16g'\JJ	.	16g'\JJ	.	16bb-'\JJ	.	.	.	.
=52	=52	=52	=52	=52	=52	=52	=52	=52	=52	=52	=52	=52
!	!LO:TX:a:t=1.	!	!	!	!	!	!	!	!	!	!	!
2r;	2r	2r;	.	4a;\	-ne	4a;\	-ne	4ccc;;\	-ne	2ryy	2ryy	2ryy
.	.	.	.	4r	.	4r	.	4r	.	.	.	.
!	!	!	!	!LO:LB:g=original	!	!	!	!	!	!	!	!
=53	=53	=53	=53	=53	=53	=53	=53	=53	=53	=53	=53	=53
*	*tremolo	*tremolo	*	*	*	*	*	*	*	*	*	*
16c\LL	16cc\LL	16ff\LL	f	4c\	Do-	4c\	Do-	4aa\	Do-	2ryy	2ryy	4ddd\
16c\	16cc\	16ff\	.	.	.	.	.	.	.	.	.	.
16c\	16cc\	16ff\	.	.	.	.	.	.	.	.	.	.
16c\JJ	16cc\JJ	16ff\JJ	.	.	.	.	.	.	.	.	.	.
*tremolo	*	*	*	*	*	*	*	*	*	*	*	*
16C/LL	16b-\LL	16een\LL	.	4C/	-mi-	4C/	-mi-	4gg\	-mi-	.	.	4ccc\
16C/	16b-\	16een\	.	.	.	.	.	.	.	.	.	.
16C/	16b-\	16een\	.	.	.	.	.	.	.	.	.	.
16C/JJ	16b-\JJ	16een\JJ	.	.	.	.	.	.	.	.	.	.
*Xtremolo	*Xtremolo	*Xtremolo	*	*	*	*	*	*	*	*	*	*
=54	=54	=54	=54	=54	=54	=54	=54	=54	=54	=54	=54	=54
!LO:TX:a:t=problem: mixed beam	!	!	!	!	!	!	!	!	!	!	!	!
8F\L	16a/LL	16ff\LL	.	4F\	-ni	4F/	-ni	8ff\	-ni	2ryy	2ryy	8ccc\L
.	16b-/	16dd\	.	.	.	.	.	.	.	.	.	.
8C\	16a/	16cc\	.	.	.	.	.	8r	.	.	.	8ccc\
.	16g/JJ	16b-\JJ	.	.	.	.	.	.	.	.	.	.
!	!LO:TX:a:t=problem: mixed beam	!LO:TX:a:t=problem: mixed beam	!	!	!	!	!	!	!	!	!	!
8FF/J	8f/L	8a/L	.	4r	.	4r	.	4r	.	.	.	8ccc\J
8r	16.aa\L	16.ccc\L	.	.	.	.	.	.	.	.	.	8r
.	32aa\JJk	32ccc\JJk	.	.	.	.	.	.	.	.	.	.
!	!	!	!	!	!	!LO:LB:g=original	!	!	!	!	!	!
=55	=55	=55	=55	=55	=55	=55	=55	=55	=55	=55	=55	=55
!	!	!	!	!LO:TX:a:t=10.	!	!LO:TX:a:t=10.	!	!	!	!	!	!LO:TX:a:t=3.
!	!	!	!	!LO:N:vis=00	!	!LO:N:vis=00	!	!LO:N:vis=00	!	!	!	!LO:N:vis=0
8r	8.aa\L	8.ccc\L	.	0r	.	0r	.	0r	.	2ryy	2ryy	1r
!LO:TX:a:t=problem: mixed beam	!	!	!	!	!	!	!	!	!	!	!	!
8F\L	.	.	.	.	.	.	.	.	.	.	.	.
.	16bb-\Jk	16ddd\Jk	.	.	.	.	.	.	.	.	.	.
8FF/J	16bb-\LL	16ddd\LL	.	.	.	.	.	.	.	.	.	.
.	16aa\	16ccc\	.	.	.	.	.	.	.	.	.	.
8r	16gg\	16bb-\	.	.	.	.	.	.	.	.	.	.
.	16ff\JJ	16aa\JJ	.	.	.	.	.	.	.	.	.	.
=56	=56	=56	=56	=56	=56	=56	=56	=56	=56	=56	=56	=56
8r	8.gg\L	8.bb-\L	.	.	.	.	.	.	.	2ryy	2ryy	.
!LO:TX:a:t=problem: mixed beam	!	!	!	!	!	!	!	!	!	!	!	!
8c\L	.	.	.	.	.	.	.	.	.	.	.	.
.	16aa\Jk	16ccc\Jk	.	.	.	.	.	.	.	.	.	.
8C/J	16aa\LL	16ccc\LL	.	.	.	.	.	.	.	.	.	.
.	16gg\	16bb-\	.	.	.	.	.	.	.	.	.	.
8r	16ff\	16aa\	.	.	.	.	.	.	.	.	.	.
.	16een\JJ	16gg\JJ	.	.	.	.	.	.	.	.	.	.
!LO:LB:g=original	!	!	!	!	!	!	!	!	!	!	!	!
=57	=57	=57	=57	=57	=57	=57	=57	=57	=57	=57	=57	=57
8F\L	8ff\L	8aa\L	.	.	.	.	.	.	.	2ryy	2ryy	2r
8A\	(32aa\LL	(32ccc\LL	.	.	.	.	.	.	.	.	.	.
.	32gg\	32bb-\	.	.	.	.	.	.	.	.	.	.
.	32ff\	32aa\	.	.	.	.	.	.	.	.	.	.
.	32een\JJJ)	32gg\JJJ)	.	.	.	.	.	.	.	.	.	.
8B-\	16b-/LL	16gg\LL	.	.	.	.	.	.	.	.	.	.
.	16a/	16ff\	.	.	.	.	.	.	.	.	.	.
8c\J	16a/	16ff\	.	.	.	.	.	.	.	.	.	.
!	!	!LO:TX:a:t=sic:s=16een	!	!	!	!	!	!	!	!	!	!
.	16g/JJ	16ee-\JJ	.	.	.	.	.	.	.	.	.	.
!	!	!LO:LB:g=original	!	!	!	!	!	!	!	!	!	!LO:PB:g=original
=58	=58	=58	=58	=58	=58	=58	=58	=58	=58	=58	=58	=58
!LO:TX:a:t=problem: mixed beam	!	!LO:TX:a:t=sic:s=4een	!	!	!	!	!	!	!	!	!	!
8F\L	(4g/	(4ee-\	p	.	.	.	.	.	.	2ryy	2ryy	4r
8C\	.	.	.	.	.	.	.	.	.	.	.	.
8FF/J	8a/L	8ff\L)	.	.	.	.	.	.	.	.	.	8r
8r	16.a/L)	16.cc\L	.	.	.	.	.	.	.	.	.	16.ccc\LL
.	32a/JJk	32cc\JJk	.	.	.	.	.	.	.	.	.	32ccc\JJk
=59	=59	=59	=59	=59	=59	=59	=59	=59	=59	=59	=59	=59
!	!	!	!	!LO:N:vis=00	!	!LO:N:vis=00	!	!LO:N:vis=00	!	!	!	!
8r	8.a/L	8.cc\L	.	0r	.	0r	.	0r	.	2ryy	2ryy	8.ccc\L
!LO:TX:a:t=problem: mixed beam	!	!	!	!	!	!	!	!	!	!	!	!
8F\L	.	.	.	.	.	.	.	.	.	.	.	.
.	16b-/Jk	16dd\Jk	.	.	.	.	.	.	.	.	.	16ddd\Jk
8FF/J	16b-/LL	16dd\LL	.	.	.	.	.	.	.	.	.	16ddd\LL
.	16a/	16cc\	.	.	.	.	.	.	.	.	.	16ccc\
8r	16g/	16b-\	.	.	.	.	.	.	.	.	.	16bb-\
.	16f/JJ	16a\JJ	.	.	.	.	.	.	.	.	.	16aa\JJ
!	!LO:LB:g=original	!	!	!	!	!	!	!	!	!	!	!
=60	=60	=60	=60	=60	=60	=60	=60	=60	=60	=60	=60	=60
8r	8.g/L	8.b-\L	.	.	.	.	.	.	.	2ryy	2ryy	8.bb-\L
!LO:TX:a:t=problem: mixed beam	!	!	!	!	!	!	!	!	!	!	!	!
8c\L	.	.	.	.	.	.	.	.	.	.	.	.
.	16a/Jk	16cc\Jk	.	.	.	.	.	.	.	.	.	16ccc\Jk
8C/J	16a/LL	16cc\LL	.	.	.	.	.	.	.	.	.	16ccc\LL
.	16g/	16b-\	.	.	.	.	.	.	.	.	.	16bb-\
8r	16f/	16a\	.	.	.	.	.	.	.	.	.	16aa\
!	!LO:TX:a:t=vi	!	!	!	!	!	!	!	!	!	!	!
.	16e-/JJ	16g\JJ	.	.	.	.	.	.	.	.	.	16gg\JJ
=61	=61	=61	=61	=61	=61	=61	=61	=61	=61	=61	=61	=61
!	!LO:TX:a:t=De	!	!	!	!	!	!	!	!	!	!	!
8F\L	8f/L	16a\LL	.	.	.	.	.	.	.	2ryy	2ryy	16aa\LL
.	.	16cc\	.	.	.	.	.	.	.	.	.	16ccc\
8G\	8a/	16dd\	.	.	.	.	.	.	.	.	.	16ddd\
.	.	16een\JJ	.	.	.	.	.	.	.	.	.	16eeen\JJ
!	!	!LO:TX:a:t=problem:kropka pod klamrą łukową zamiast cyfry	!	!	!	!	!	!	!	!	!	!LO:TX:a:t=problem:kropka pod klamrą łukową
8A\	8b-/	24ff\LL	.	.	.	.	.	.	.	.	.	24fff\LL
.	.	24ee\	.	.	.	.	.	.	.	.	.	24eee\
.	.	24dd\JJ	.	.	.	.	.	.	.	.	.	24ddd\JJ
!	!	!LO:TX:a:t=problem:kropka pod klamrą łukową zamiast cyfry	!	!	!	!	!	!	!	!	!	!LO:TX:a:t=problem:kropka pod klamrą łukową
8F\J	8g/J	24cc\LL	.	.	.	.	.	.	.	.	.	24ccc\LL
.	.	24b-\	.	.	.	.	.	.	.	.	.	24bb-\
.	.	24a\JJ	.	.	.	.	.	.	.	.	.	24aa\JJ
=62	=62	=62	=62	=62	=62	=62	=62	=62	=62	=62	=62	=62
!LO:TX:a:t=problem: mixed beam	!	!	!	!	!	!	!	!	!	!	!	!
8c\L	16g/LL	16b-/LL	.	.	.	.	.	.	.	2ryy	2ryy	16bb-\LL
.	16f/J	16a/J	.	.	.	.	.	.	.	.	.	16aa\J
8G\	8e-/J	8g/J	.	.	.	.	.	.	.	.	.	8gg\J
8C/J	8r	8r	.	.	.	.	.	.	.	.	.	8r
8r	8bb-\	8ddd\	.	.	.	.	.	.	.	.	.	8ddd\
=63	=63	=63	=63	=63	=63	=63	=63	=63	=63	=63	=63	=63
!	!	!	!	!LO:N:vis=0	!	!LO:N:vis=0	!	!LO:N:vis=0	!	!	!	!
8F\L	8aa\L	8ccc\L	.	1r	.	1r	.	1r	.	2ryy	2ryy	8ccc\L
8d\	16bb-\L	16ddd\L	.	.	.	.	.	.	.	.	.	16ddd\L
.	16gg\JJ	16bb-\JJ	.	.	.	.	.	.	.	.	.	16bb-\JJ
8B-\	16gg\LL	16bb-\LL	.	.	.	.	.	.	.	.	.	8aa\L
.	16ff\	16aa\	.	.	.	.	.	.	.	.	.	.
8c\J	16ff\	16aa\	.	.	.	.	.	.	.	.	.	8gg\J
.	16ee-\JJ	16gg\JJ	.	.	.	.	.	.	.	.	.	.
!	!	!	!	!	!	!	!	!	!	!	!	!LO:LB:g=original
=64	=64	=64	=64	=64	=64	=64	=64	=64	=64	=64	=64	=64
8F\	8a/L	8ff\L	.	.	.	.	.	.	.	2ryy	2ryy	8ff\L
8r	8b-/J	16cc\L	.	.	.	.	.	.	.	.	.	16ccc\L
.	.	16dd\JJ	.	.	.	.	.	.	.	.	.	16ddd\JJ
4r	8a/L	8cc\L	.	.	.	.	.	.	.	.	.	8ccc\L
.	8g/J	8b-\J	.	.	.	.	.	.	.	.	.	8bb-\J
!	!	!	!	!	!	!	!	!LO:LB:g=original	!	!	!	!
=65	=65	=65	=65	=65	=65	=65	=65	=65	=65	=65	=65	=65
8r	4g/	(4b-\	.	4r	.	4r	.	4r	.	2ryy	2ryy	4aa\
8C/L	.	.	.	.	.	.	.	.	.	.	.	.
8FF/J	8f/L	8a\L	.	8r	.	8r	.	8r	.	.	.	8aa\
8r	8a/J	16.cc\L)	.	16.A\	Be-	16.A/	Be-	16.cc\	Be-	.	.	8r
!	!	!	!LO:DY:t=p:	!	!	!	!	!	!	!	!	!
.	.	32cc\JJk	p	32A\	-ne-	32A/	-ne-	32cc\	-ne	.	.	.
=66	=66	=66	=66	=66	=66	=66	=66	=66	=66	=66	=66	=66
!	!	!	!	!	!	!	!	!	!	!	!	!LO:N:vis=00
8r	8a/L	8.cc\L	.	8.A\L	-dic-	8.A/L	-dic-	8.cc\L	dic-	2ryy	2ryy	0r
!LO:TX:a:t=problem: mixed beam	!	!	!	!	!	!	!	!	!	!	!	!
8F\	8b-/J	.	.	.	.	.	.	.	.	.	.	.
.	.	16dd\Jk	.	16B-\Jk	.	16B-/Jk	.	16dd\Jk	.	.	.	.
8FF/	16b-/LL	16dd\LL	.	16B-\LL	-tus	16B-/LL	-tus	16dd\LL	-tus	.	.	.
.	16a/	16cc\	.	16A\JJ	.	16A/JJ	.	16cc\JJ	.	.	.	.
8r	16g/	16b-\	.	16G\LL	qui	16G/LL	qui	16b-\LL	qui	.	.	.
.	16f/JJ	16a\JJ	.	16F\JJ	.	16F/JJ	.	16a\JJ	.	.	.	.
=67	=67	=67	=67	=67	=67	=67	=67	=67	=67	=67	=67	=67
8r	8g/L	8.b-\L	.	8.G\L	ve-	8.G/L	ve-	8.b-\L	ve-	2ryy	2ryy	.
!LO:TX:a:t=problem: mixed beam	!	!	!	!	!	!	!	!	!	!	!	!
8c\L	8a/J	.	.	.	.	.	.	.	.	.	.	.
.	.	16cc\Jk	.	16A\Jk	.	16A/Jk	.	16cc\Jk	.	.	.	.
8C/J	16a/LL	16cc\LL	.	16A\LL	-nit	16A/LL	-nit	16cc\LL	-nit	.	.	.
.	16g/	16b-\	.	16G\JJ	.	16G/JJ	.	16b-\JJ	.	.	.	.
8r	16f/	16a\	.	16F\LL	in	16F/LL	in	16a\LL	in	.	.	.
!	!	!	!	!	!	!LO:TX:a:t=sic:s=16En	!	!	!	!	!	!
.	16e-/JJ	16g\JJ	.	16En\JJ	.	16E-/JJ	.	16g\JJ	.	.	.	.
!	!	!LO:LB:g=original	!	!	!	!	!	!	!	!	!	!
=68	=68	=68	=68	=68	=68	=68	=68	=68	=68	=68	=68	=68
8r	8f/L	8a\L	.	8F\	No-	8F/	no-	8a\	No-	2ryy	2ryy	.
!LO:TX:a:t=problem: mixed beam	!	!	!	!	!	!	!	!	!	!	!	!
8B-\L	8A/J	32cc\LL	.	16G\	-mi-	16G/	-mi-	16b-\	-mi-	.	.	.
.	.	32b-\	.	.	.	.	.	.	.	.	.	.
.	.	32a\	.	16B-\	-ne	16B-/	-ne	16g\	-ne	.	.	.
.	.	32g\JJJ	.	.	.	.	.	.	.	.	.	.
8c\	16B-/LL	16g/LL	.	8A\	Do-	8A/	Do-	16g/LL	Do-	.	.	.
.	16A/	16f/	.	.	.	.	.	16f/JJ	.	.	.	.
8C/J	16A/	16f/	.	8G\	-mi-	8G/	-mi-	16f/LL	-mi-	.	.	.
!	!LO:TX:a:t=re	!	!	!	!	!	!	!	!	!	!	!
.	16G/JJ	16en/JJ	.	.	.	.	.	16e-/JJ	.	.	.	.
!LO:LB:g=original	!	!	!	!LO:LB:g=original	!	!	!	!	!	!	!	!
=69	=69	=69	=69	=69	=69	=69	=69	=69	=69	=69	=69	=69
!	!LO:TX:a:t=tro	!LO:TX:a:t=sic:s=en	!	!	!	!	!	!	!	!	!	!
8F\L	4G/	(4e-/	.	8F\	-ni	8F/	-ni	8e-/L	-ni	2ryy	2ryy	.
16F\L	.	.	.	8r	.	8r	.	8f/J	.	.	.	.
16G\JJ	.	.	.	.	.	.	.	.	.	.	.	.
!	!LO:TX:a:t=problem: mixed beam	!LO:TX:a:t=problem: mixed beam	!	!	!	!	!	!	!	!	!	!
16F\LL	8A/L	8f/L)	.	8r	.	8r	.	8r	.	.	.	.
16E-\	.	.	.	.	.	.	.	.	.	.	.	.
!	!	!	!	!LO:N:vis=8.	!	!	!	!	!	!	!	!
16D\	16.dd\L	16.ff\L	.	16.d\	Be-	16.d\	Be-	16.ff\	Be-	.	.	.
16C\JJ	.	.	.	.	.	.	.	.	.	.	.	.
!	!	!	!	!LO:N:vis=16	!	!	!	!	!	!	!	!
.	32dd\JJk	32ff\JJk	.	32d\	-ne-	32d\	-ne-	32ff\	-ne-	.	.	.
=70	=70	=70	=70	=70	=70	=70	=70	=70	=70	=70	=70	=70
!LO:TX:a:t=problem: mixed beam	!	!	!	!	!	!	!	!	!	!	!	!LO:N:vis=00
8BB-/L	8dd\L	8.ff\L	.	8.d\L	-dic-	8.d\L	-di-	8.ff\L	-dic-	2ryy	2ryy	0r
8B-\	8ee-\J	.	.	.	.	.	.	.	.	.	.	.
.	.	16gg\Jk	.	16e-\Jk	.	16e-\Jk	.	16gg\Jk	.	.	.	.
8BB-/J	16ee-\LL	16gg\LL	.	16e-\LL	-tus	16e-\LL	-ctus,	16gg\LL	-tus	.	.	.
.	16dd\	16ff\	.	16d\JJ	.	16d\JJ	.	16ff\JJ	.	.	.	.
8r	16cc\	16ee-X\	.	16c\LL	qui	16c\LL	qui	16ee-\LL	qui	.	.	.
.	16b-\JJ	16dd\JJ	.	16B-\JJ	.	16B-\JJ	.	16dd\JJ	.	.	.	.
!	!	!	!	!	!	!	!	!LO:LB:g=original	!	!	!	!
=71	=71	=71	=71	=71	=71	=71	=71	=71	=71	=71	=71	=71
8r	8.cc\L	8.ee-\L	.	8.c\L	ve-	8.c\L	ve-	8.ee-\L	ve-	2ryy	2ryy	.
!LO:TX:a:t=problem: mixed beam	!	!	!	!	!	!	!	!	!	!	!	!
8F\L	.	.	.	.	.	.	.	.	.	.	.	.
.	16dd\Jk	16ff\Jk	.	16d\Jk	.	16d\Jk	.	16ff\Jk	.	.	.	.
8FF/J	16dd\LL	16ff\LL	.	16d\LL	-nit	16d\LL	-nit	16ff\LL	-nit	.	.	.
.	16cc\	16ee-\	.	16c\JJ	.	16c\JJ	.	16ee-\JJ	.	.	.	.
!	!	!	!	!	!	!LO:LB:g=original	!	!	!	!	!	!
8r	16b-\	16dd\	.	16B-\LL	in	16B-\LL	in	16dd\LL	in	.	.	.
.	16a\JJ	16cc\JJ	.	16A\JJ	.	16A\JJ	.	16cc\JJ	.	.	.	.
=72	=72	=72	=72	=72	=72	=72	=72	=72	=72	=72	=72	=72
!	!LO:TX:a:t=problem: mixed beam	!	!	!	!	!	!	!	!	!	!	!
8r	8b-\L	8dd\L	.	8B-\	No-	8B-\	no-	8dd\	No-	2ryy	2ryy	.
8G\L	16cc\L	16ee-\L	.	16c\	-mi-	16c\	-mi-	16ee-\	-mi-	.	.	.
.	16e-/JJ	16cc\JJ	.	16B-\	-ne	16B-\	-ne	16cc\	-ne	.	.	.
8E-\	16e-/LL	16cc\LL	.	8E-\	Do-	8E-/	Do-	16cc\LL	Do-	.	.	.
.	16d/	16b-\	.	.	.	.	.	16b-\JJ	.	.	.	.
8F\J	16d/	16b-\	.	8F\	-mi-	8F/	-mi-	16b-\LL	-mi-	.	.	.
.	16c/JJ	16a\JJ	.	.	.	.	.	16a\JJ	.	.	.	.
=73	=73	=73	=73	=73	=73	=73	=73	=73	=73	=73	=73	=73
8BB-/L	4c/	4a\	.	8BB-/	-ni	8BB-/	-ni	8a\L	-ni	2ryy	2ryy	.
8FF/	.	.	.	8r	.	8r	.	8b-\J	.	.	.	.
8BB-/J	8d/	8b-\	.	8r	.	8r	.	8r	.	.	.	.
8r	8r	8r	.	8d\	in	8d\	in	8ff\	in	.	.	.
=74	=74	=74	=74	=74	=74	=74	=74	=74	=74	=74	=74	=74
*tremolo	*tremolo	*tremolo	*	*	*	*	*	*	*	*	*	*
!	!	!	!	!	!	!	!	!	!	!	!	!LO:N:vis=00
8BB-/L	8dd\L	8ff\L	.	8.f\L	No-	8.f\L	No-	8.aa-X\L	No-	2ryy	2ryy	0r
8BB-/	8dd\	8ff\	.	.	.	.	.	.	.	.	.	.
.	.	.	.	16d\Jk	.	16d\Jk	.	16ff\Jk	.	.	.	.
!	!	!	!	!LO:LB:g=original	!	!	!	!	!	!	!	!
8BB-/	8dd\	8ff\	.	16f\LL	-mi-	16f\LL	-mi-	16aa-\LL	.	.	.	.
.	.	.	.	16d\JJ	.	16d\JJ	.	16ff\	.	.	.	.
8BB-/J	8dd\J	8ff\J	.	16B-\LL	-ne	16B-/LL	-ne	16ee-\	.	.	.	.
.	.	.	.	16A-X\JJ	.	16A-X/JJ	.	16dd\JJ	.	.	.	.
=75	=75	=75	=75	=75	=75	=75	=75	=75	=75	=75	=75	=75
!	!	!	!	!	!	!	!	!LO:N:vis=8.	!	!	!	!
8E-\L	8b-\L	8gg\L	.	16A\	Do-	16A/	Do-	16.ee-\	.	2ryy	2ryy	.
.	.	.	.	16G\	-mi-	16G/	-mi-	.	.	.	.	.
!	!	!	!	!	!	!	!	!LO:N:vis=16	!	!	!	!
.	.	.	.	.	.	.	.	32b-\	-mi-	.	.	.
8E-\	8b-\	8gg\	.	8G\	-ni	8G/	-ni	8b-\	-ne	.	.	.
8E-\	8b-\	8gg\	.	8r	.	8r	.	8r	.	.	.	.
8E-\J	8b-\J	8gg\J	.	8A-X\	in	8A-X/	in	8cc\	in	.	.	.
=76	=76	=76	=76	=76	=76	=76	=76	=76	=76	=76	=76	=76
!	!LO:TX:a:t=2	!LO:TX:a:t=2	!	!	!	!	!	!	!	!	!	!
!	!LO:N:vis=0	!LO:N:vis=0	!	!	!	!	!	!	!	!	!	!
4A-X\	1r	1r	.	8G\	No-	8G/	No-	8b-\	No-	2ryy	2ryy	.
.	.	.	.	16A-X\	-mi-	16A-X/	-mi-	16cc\LL	-mi-	.	.	.
.	.	.	.	16c\	-ne	16c/	-ne	16a-X\JJ	.	.	.	.
!LO:TX:a:t=problem: mixed beam	!	!	!	!	!	!	!	!	!	!	!	!
8B-\L	.	.	.	8B-\	Do-	8B-\	Do-	16a-\LL	-ne	.	.	.
.	.	.	.	.	.	.	.	16g\JJ	.	.	.	.
!	!	!	!	!	!	!LO:N:vis=4	!	!	!	!	!	!
8BB-/J	.	.	.	8BB-/	-mi-	8BB-/	-mi-	16g\LL	Do-	.	.	.
.	.	.	.	.	.	.	.	16f\JJ	-mi-	.	.	.
!	!	!	!	!	!	!	!	!LO:LB:g=original	!	!	!	!
=77	=77	=77	=77	=77	=77	=77	=77	=77	=77	=77	=77	=77
!LO:TX:a:t=problem: mixed beam	!	!	!	!	!	!	!	!	!	!	!	!
8E-\L	.	.	.	4E-\	-ni	4E-/	-ni	8f\L	-ni	2ryy	2ryy	.
8BB-\	.	.	.	.	.	.	.	8g\J	.	.	.	.
8EE-/J	.	.	.	8r	.	8r	.	8r	.	.	.	.
8r	.	.	.	8en\	in	8en\	in	8gg\	in	.	.	.
!	!LO:LB:g=original	!	!	!	!	!LO:LB:g=original	!	!	!	!	!	!
=78	=78	=78	=78	=78	=78	=78	=78	=78	=78	=78	=78	=78
!	!	!	!	!	!	!	!	!	!	!	!	!LO:N:vis=00
8C\L	8een\L	8gg\L	.	8.g\L	No-	8.g\L	No-	8.bb-\L	No-	2ryy	2ryy	0r
8C\	8een\	8gg\	.	.	.	.	.	.	.	.	.	.
.	.	.	.	16en\Jk	-mi-	16en\Jk	.	16gg\Jk	.	.	.	.
8C\	8een\	8gg\	.	16g\LL	-ne	16g\LL	-mi-	16bb-\LL	.	.	.	.
.	.	.	.	16e\JJ	.	16e\JJ	.	16gg\	.	.	.	.
8C\J	8een\J	8gg\J	.	16c\LL	Do-	16c\LL	-ne	16ff\	.	.	.	.
.	.	.	.	16B-\JJ	.	16B-\JJ	.	16een\JJ	.	.	.	.
=79	=79	=79	=79	=79	=79	=79	=79	=79	=79	=79	=79	=79
8F\L	8cc\L	8aa\L	.	16B-\	-mi-	16B-\	Do-	16.ff\	.	2ryy	2ryy	.
.	.	.	.	16An\	.	16An\	-mi-	.	.	.	.	.
.	.	.	.	.	.	.	.	32cc\	-mi-	.	.	.
8F\	8cc\	8aa\	.	8A\	-ni	8A\	-ni	8cc\	-ne	.	.	.
8F\	8cc\	8aa\	.	8r	.	8r	.	8r	.	.	.	.
8F\J	8cc\J	8aa\J	.	8B-\	in	8B-\	in	8dd\	in	.	.	.
!	!	!	!	!LO:PB:g=original	!	!	!	!	!	!	!	!
=80	=80	=80	=80	=80	=80	=80	=80	=80	=80	=80	=80	=80
!	!LO:TX:a:t=2	!LO:TX:a:t=2	!	!	!	!	!	!	!	!	!	!
!	!LO:N:vis=0	!LO:N:vis=0	!	!	!	!	!	!	!	!	!	!
4B-\	1r	1r	.	8A\	No-	8A\	no-	8cc\	No-	2ryy	2ryy	.
.	.	.	.	16B-\	-mi-	16B-\	-mi-	16dd\	-mi-	.	.	.
.	.	.	.	16d\	-ne	16d\	-ne	16b-\	-ne	.	.	.
!LO:TX:a:t=problem: mixed beam	!	!	!	!	!	!	!	!	!	!	!	!
8c\L	.	.	.	8c\	Do-	8c\	Do-	16b-\LL	Do-	.	.	.
.	.	.	.	.	.	.	.	16a\JJ	.	.	.	.
8C/J	.	.	.	8C/	-mi-	8C/	-mi-	16a\LL	-mi-	.	.	.
.	.	.	.	.	.	.	.	16g\JJ	.	.	.	.
=81	=81	=81	=81	=81	=81	=81	=81	=81	=81	=81	=81	=81
.	.	.	.	.	.	.	.	8qqg/	.	.	.	.
!LO:TX:a:t=problem: mixed beam	!	!	!	!	!	!	!	!	!	!	!	!
8F\L	.	.	.	8F\	-ni	8F/	-ni	4a\	-ni	2ryy	2ryy	.
8C\	.	.	.	8r	.	8r	.	.	.	.	.	.
8FF/J	.	.	.	8r	.	8r	.	8r	.	.	.	.
8r	.	.	.	8d\	in	8d\	in	8ff\	in	.	.	.
!LO:LB:g=original	!	!	!	!	!	!	!	!	!	!	!	!
=82	=82	=82	=82	=82	=82	=82	=82	=82	=82	=82	=82	=82
!	!	!	!	!LO:TX:a:t=problem:klamra łukowa, kropka zamiast cyfry	!	!LO:TX:a:t=problem:kropka pod klamrą łukową zamiast cyfry	!	!LO:TX:a:t=problem:klamra łukowa, kropka zamiast cyfry	!	!	!	!LO:N:vis=00
8BB-/L	8dd\L	8ff\L	.	24d\LL	No-	24d\LL	No-	24ff\LL	No-	2ryy	2ryy	0r
.	.	.	.	24e-X\	.	24e-X\	.	24gg\	.	.	.	.
.	.	.	.	24d\J	.	24d\J	.	24ff\J	.	.	.	.
8BB-/	8dd\	8ff\	.	8B-\J	.	8B-\J	.	8dd\J	.	.	.	.
8BB-/	8dd\	8ff\	.	16d\LL	.	16d\LL	.	16ff\LL	.	.	.	.
.	.	.	.	16f\	.	16f\	.	16bb-\	.	.	.	.
8BB-/J	8dd\J	8ff\J	.	16d\	.	16d\	.	16aa\	.	.	.	.
.	.	.	.	16B-\JJ	.	16B-\JJ	.	16gg\JJ	.	.	.	.
!	!	!	!	!	!	!	!	!LO:LB:g=original	!	!	!	!
=83	=83	=83	=83	=83	=83	=83	=83	=83	=83	=83	=83	=83
8BB-/L	8dd\L	8ff\L	.	16d\LL	.	16d\LL	.	16ff\LL	.	2ryy	2ryy	.
.	.	.	.	16e-\JJ	.	16e-\JJ	.	16gg\	.	.	.	.
8BB-/	8dd\	8ff\	.	16B-\LL	-mi-	16B-\LL	-mi-	16cc\	.	.	.	.
.	.	.	.	16d\JJ	-ne	16d\JJ	.	16ee-X\JJ	.	.	.	.
.	.	.	.	.	.	.	.	8qqee-/	.	.	.	.
8BB-/	8dd\	8ff\	.	8c\	Do-	8c\	-ne	4dd\	.	.	.	.
8BB-/J	8dd\J	8ff\J	.	8c\	.	8c\	Do-	.	.	.	.	.
=84	=84	=84	=84	=84	=84	=84	=84	=84	=84	=84	=84	=84
!	!	!	!	!	!	!	!	!LO:TX:a:t=problem:klamra łukowa, kropka zamiast cyfry	!	!	!	!
8FF/L	8cc\L	8ee-\L	.	24c\LL	.	24c\LL	.	24ee-\LL	.	2ryy	2ryy	.
.	.	.	.	24d\	.	24d\	.	24ff\	.	.	.	.
.	.	.	.	24c\JJ	.	24c\JJ	.	24ee-\J	.	.	.	.
8FF/	8cc\	8ee-\	.	8An\	.	8An/	.	8cc\J	.	.	.	.
!	!	!	!	!	!	!LO:LB:g=original	!	!	!	!	!	!
8FF/	8cc\	8ee-\	.	16A\LL	.	16A/LL	.	16ccc\LL	.	.	.	.
.	.	.	.	16c\	.	16c/	.	16aa\	.	.	.	.
8FF/J	8cc\J	8ee-\J	.	16A\	.	16A/	.	16ff\	.	.	.	.
.	.	.	.	16F\JJ	.	16F/JJ	.	16ee-\JJ	.	.	.	.
=85	=85	=85	=85	=85	=85	=85	=85	=85	=85	=85	=85	=85
8FF/L	8cc\L	8ee-\L	.	16c\LL	.	16c\LL	.	16ee-\LL	.	2ryy	2ryy	.
.	.	.	.	16B-\JJ	.	16B-\JJ	.	16dd\JJ	.	.	.	.
8FF/	8cc\	8ee-\	.	16B-\LL	-mi-	16B-\LL	-mi-	16dd\LL	-mi-	.	.	.
.	.	.	.	16A\JJ	.	16A\JJ	.	16cc\JJ	.	.	.	.
!	!	!	!	!LO:LB:g=original	!	!	!	!	!	!	!	!
8FF/	8cc\	8ee-\	.	8B-\	-ne	8B-\	-ne	8dd\	-ne	.	.	.
8FF/J	8cc\J	8ee-\J	.	8d\	in	8d\	in	8ff\	in	.	.	.
*	*	*Xtremolo	*	*	*	*	*	*	*	*	*	*
*	*Xtremolo	*	*	*	*	*	*	*	*	*	*	*
*	*Xtremolo	*Xtremolo	*	*	*	*	*	*	*	*	*	*
!	!	!LO:LB:g=original	!	!	!	!	!	!	!	!	!	!
=86	=86	=86	=86	=86	=86	=86	=86	=86	=86	=86	=86	=86
!LO:TX:a:t=problem: mixed beam	!	!	!	!	!	!	!	!	!	!	!	!LO:N:vis=1
8BB-/L	8dd\L	8ff\L	.	8d\	No-	8d\	No-	8ff\	No-	2ryy	2ryy	2r
8G\	16ee-\L	16gg\L	.	16e-\	-mi-	16e-\	-mi-	16gg\	-mi-	.	.	.
.	16cc\JJ	16ee-\JJ	.	16c\	-ne	16c\	-ne	16ee-\	-ni	.	.	.
8E-\	8f/L	(16ee-\LL	.	8B-\	Do-	8B-\	Do-	16ee-\LL	Do-	.	.	.
.	.	16dd\)	.	.	.	.	.	16dd\JJ	.	.	.	.
8F\J	8e-/J	(16dd\	.	8An\	-mi-	8An\	-mi-	16dd\LL	-mi-	.	.	.
.	.	16cc#X\JJ)	.	.	.	.	.	16cc\JJ	.	.	.	.
=87	=87	=87	=87	=87	=87	=87	=87	=87	=87	=87	=87	=87
8B-\L	4e-/	(4cc#X\	.	8A\L	-ni	8A/L	-ni	8cc#X\L	-ni	2ryy	2ryy	4r
8F\	.	.	.	8B-\J	.	8B-/J	.	8dd\J	.	.	.	.
!	!	!LO:TX:a:t=problem: mixed beam	!	!	!	!	!	!	!	!	!	!
8BB-\J	8d/L	8dd\L)	.	4r	.	4r	.	4r	.	.	.	8r
8r	16B-/L	(16d/L	.	.	.	.	.	.	.	.	.	16dd\LL
.	16c/JJ	16e-/JJ)	.	.	.	.	.	.	.	.	.	16ee-\JJ
=88	=88	=88	=88	=88	=88	=88	=88	=88	=88	=88	=88	=88
!	!	!	!	!	!	!	!	!LO:TX:a:t=problem: powinien byc jeszcze jeden pusty takt	!	!	!	!
!	!	!	!	!	!	!	!	!LO:TX:a:t=1.	!	!	!	!
!	!	!	!	!LO:N:vis=0	!	!LO:N:vis=0	!	!LO:N:vis=1	!	!	!	!
8BB-/	16d/LL	(16f/LL	.	1r	.	1r	.	2r	.	2ryy	2ryy	16ff\LL
.	16B-/	16d/)	.	.	.	.	.	.	.	.	.	16dd\
8r	16e-/	(16g/	.	.	.	.	.	.	.	.	.	16gg\
.	16c/JJ	16e-/JJ)	.	.	.	.	.	.	.	.	.	16ee-\JJ
8B-\	16d/LL	(16f/LL	.	.	.	.	.	.	.	.	.	16ff\LL
.	16B-/	16d/)	.	.	.	.	.	.	.	.	.	16dd\
8r	16e-/	(16g/	.	.	.	.	.	.	.	.	.	16gg\
.	16c/JJ	16e-/JJ)	.	.	.	.	.	.	.	.	.	16ee-\JJ
=89	=89	=89	=89	=89	=89	=89	=89	=89	=89	=89	=89	=89
!	!LO:TX:a:t=problem:kropka pod klamrą łukową zamiast cyfry	!LO:TX:a:t=problem:kropka pod klamrą łukową zamiast cyfry	!	!	!	!	!	!	!	!	!	!LO:TX:a:t=problem:kropka pod klamrą łukową
4F\	24d/LL	24f/LL	.	.	.	.	.	2ryy	.	2ryy	2ryy	24ff\LL
.	24e-/	24g/	.	.	.	.	.	.	.	.	.	24gg\
.	24f/JJ	24a/JJ	.	.	.	.	.	.	.	.	.	24aa\JJ
!	!LO:TX:a:t=problem:kropka pod klamrą łukową zamiast cyfry	!LO:TX:a:t=problem:kropka pod klamrą łukową zamiast cyfry	!	!	!	!	!	!	!	!	!	!LO:TX:a:t=problem:kropka pod klamrą łukową
.	24g/LL	24b-/LL	.	.	.	.	.	.	.	.	.	24bb-\LL
.	24f/	24a/	.	.	.	.	.	.	.	.	.	24aa\
.	24e-/JJ	24g/JJ	.	.	.	.	.	.	.	.	.	24gg\JJ
!LO:TX:a:t=problem: mixed beam	!	!	!	!	!	!	!	!	!	!	!	!
8B-\L	8d/L	8f/L	.	.	.	.	.	.	.	.	.	8ff\L
8BB-/J	8c/J	8e-/J	.	.	.	.	.	.	.	.	.	8ee-\J
=90	=90	=90	=90	=90	=90	=90	=90	=90	=90	=90	=90	=90
!LO:TX:a:t=problem: mixed beam	!	!	!	!	!	!	!	!	!	!	!	!
8B-\L	16B-/LL	16d/LL	.	4r	.	4r	.	4r	.	2ryy	2ryy	16dd\LL
.	16c/	16e-/	.	.	.	.	.	.	.	.	.	16ee-\
8F\	16d/	16f/	.	.	.	.	.	.	.	.	.	16ff\
.	16e-/JJ	16g/JJ	.	.	.	.	.	.	.	.	.	16gg\JJ
!	!LO:LB:g=original	!	!	!	!	!	!	!	!	!	!	!
!	!LO:TX:a:t=problem: mixed beam	!LO:TX:a:t=problem: mixed beam	!	!	!	!	!	!	!	!	!	!
8BB-/J	8d/L	8f/L	.	8r	.	8r	.	8r	.	.	.	8ff\
8r	8ee-\J	8gg\J	.	8e-\	in	8e-\	in	8gg\	in	.	.	8r
!	!	!	!	!	!	!	!	!LO:LB:g=original	!	!	!	!
=91	=91	=91	=91	=91	=91	=91	=91	=91	=91	=91	=91	=91
!	!	!	!	!	!	!	!	!	!	!	!	!LO:TX:a:t=1
8G\L	8dd\L	8ff\L	.	8d\	No-	8d\	No-	8ff\	No-	2ryy	2ryy	2r
8G\	16ee-\L	16gg\L	.	16e-\	-mi-	16e-\	-mi-	16gg\	-mi-	.	.	.
.	16cc\JJ	16ee-\JJ	.	16c\	-ne	16c\	-ne	16ee-\	-ne	.	.	.
8E-\	16g/LL	16ee-\LL	.	8B-\	Do-	8B-\	Do-	16ee-\LL	Do-	.	.	.
.	16f/	16dd\	.	.	.	.	.	16dd\JJ	.	.	.	.
8F\J	16f/	16dd\	.	8An\	-mi-	8An\	-mi-	16dd\LL	-mi-	.	.	.
.	16e-/JJ	16cc\JJ	.	.	.	.	.	16cc\JJ	.	.	.	.
=92	=92	=92	=92	=92	=92	=92	=92	=92	=92	=92	=92	=92
!LO:TX:a:t=problem: mixed beam	!	!	!	!	!	!	!	!	!	!	!	!
.	.	.	.	.	.	.	.	8qqcc/	.	.	.	.
8B-\L	(4e-/	(4cc#X\	.	8B-\	-ni	8B-\	-ni	4dd\	-ni	2ryy	2ryy	4r
8F\	.	.	.	8r	.	8r	.	.	.	.	.	.
!	!	!LO:TX:a:t=problem: mixed beam	!	!	!	!	!	!	!	!	!	!
8BB-/J	8d/L)	8dd\L)	.	4r	.	4r	.	4r	.	.	.	8r
8r	16B-/L	16d/L	.	.	.	.	.	.	.	.	.	16dd\LL
.	16c/JJ	16e-/JJ	.	.	.	.	.	.	.	.	.	16ee-\JJ
!	!	!	!	!	!	!	!	!	!	!	!	!LO:LB:g=original
=93	=93	=93	=93	=93	=93	=93	=93	=93	=93	=93	=93	=93
!	!	!	!	!	!	!	!	!LO:TX:a:t=1.	!	!	!	!
8BB-/	16d/LL	16f/LL	.	2r	.	2r	.	2r	.	2ryy	2ryy	16ff\LL
.	16B-/	16d/	.	.	.	.	.	.	.	.	.	16dd\
8r	16e-/	16g/	.	.	.	.	.	.	.	.	.	16gg\
.	16c/JJ	16e-/JJ	.	.	.	.	.	.	.	.	.	16ee-\JJ
8B-\	16d/LL	16f/LL	.	.	.	.	.	.	.	.	.	16ff\LL
.	16B-/	16d/	.	.	.	.	.	.	.	.	.	16dd\
8r	16e-/	16g/	.	.	.	.	.	.	.	.	.	16gg\
.	16c/JJ	16e-/JJ	.	.	.	.	.	.	.	.	.	16ee-\JJ
!	!	!	!	!LO:LB:g=original	!	!LO:LB:g=original	!	!	!	!	!	!
=94	=94	=94	=94	=94	=94	=94	=94	=94	=94	=94	=94	=94
!	!LO:TX:a:t=problem:kropka pod klamrą łukową zamiast cyfry	!LO:TX:a:t=problem:kropka pod klamrą łukową zamiast cyfry	!	!	!	!	!	!	!	!	!	!LO:TX:a:t=problem:brak oznaczenia trioli
4G\	24d/LL	24f/LL	.	4r	.	4r	.	4r	.	2ryy	2ryy	24ff\LL
.	24e-/	24g/	.	.	.	.	.	.	.	.	.	24gg\
.	24f/JJ	24a/JJ	.	.	.	.	.	.	.	.	.	24aa\JJ
!	!LO:TX:a:t=problem:kropka pod klamrą łukową zamiast cyfry	!LO:TX:a:t=problem:kropka pod klamrą łukową zamiast cyfry	!	!	!	!	!	!	!	!	!	!LO:TX:a:t=problem:brak oznaczenia trioli
.	24g/LL	24b-/LL	.	.	.	.	.	.	.	.	.	24bb-\LL
.	24f/	24a/	.	.	.	.	.	.	.	.	.	24aa\
.	24e-/JJ	24g/JJ	.	.	.	.	.	.	.	.	.	24gg\JJ
!LO:TX:a:t=problem: mixed beam	!LO:TX:a:t=problem: mixed beam	!LO:TX:a:t=problem: mixed beam	!	!	!	!	!	!	!	!	!	!
8B-\L	8d/L	8f/\L	.	8r	.	8r	.	8r	.	.	.	8ff\L
8BB-/J	8ee-\J	8gg\J	.	8B-\	in	8B-\	in	8gg\	in	.	.	8ee-\J
!LO:LB:g=original	!	!LO:LB:g=original	!	!	!	!	!	!	!	!	!	!
=95	=95	=95	=95	=95	=95	=95	=95	=95	=95	=95	=95	=95
8B-\L	8dd\L	8ff\L	.	8d\	No-	8d\	No-	8ff\	No-	2ryy	2ryy	4ff\
8F\J	16ee-\L	16gg\L	.	16e-\	-mi-	16e-\	-mi-	16gg\	-mi-	.	.	.
.	16cc\JJ	16ee-\JJ	.	16c\	-ne	16c\	-ne	16ee-\	-ne	.	.	.
4BB-/	16cc\LL	16ee-\LL	.	16c\LL	Do-	16c\LL	Do-	16ee-\LL	Do-	.	.	4r
.	16b-\	16dd\	.	16B-\JJ	.	16B-\JJ	.	16dd\JJ	.	.	.	.
.	16b-\	16dd\	.	16B-\LL	-mi-	16B-\LL	.	16dd\LL	-mi-	.	.	.
.	16f\JJ	16cc\JJ	.	16A\JJ	.	16A\JJ	.	16cc\JJ	.	.	.	.
=96	=96	=96	=96	=96	=96	=96	=96	=96	=96	=96	=96	=96
!	!	!	!	!	!	!	!	!	!	!	!	!LO:N:vis=00
8F\L	16b-\LL	16dd\LL	.	8B-\	-ni	8B-\	-mi-	16dd\LL	-ni	2ryy	2ryy	0r
.	16dd\JJ	16ff\JJ	.	.	.	.	.	16ff\JJ	.	.	.	.
8G\	4dd\	4ff\	.	8d\	in	8d\	-ni	4ff\	in	.	.	.
8E-\	.	.	.	8d\	in	8d\	in	.	.	.	.	.
8F\J	16ee-\LL	16gg\LL	.	16e-\LL	No-	16e-\LL	No-	16gg\LL	No-	.	.	.
.	16dd\JJ	16ff\JJ	.	16d\JJ	.	16d\JJ	.	16ff\JJ	.	.	.	.
=97	=97	=97	=97	=97	=97	=97	=97	=97	=97	=97	=97	=97
8BB-/L	16dd\LL	16ff\LL	.	8d\L	.	8d\L	.	16ff\LL	.	2ryy	2ryy	.
.	16gg\	16bb-\	.	.	.	.	.	16bb-\	.	.	.	.
8BB-/	16ff\	16aa\	.	8c\J	.	8c\J	.	16aa\	.	.	.	.
.	16ee-\JJ	16gg\JJ	.	.	.	.	.	16gg\JJ	.	.	.	.
8BB-/	16dd\LL	16ff\LL	.	16d\LL	.	16d\LL	.	16ff\LL	.	.	.	.
.	16cc\	16ee-\	.	16c\	.	16c\	.	16ee-\	.	.	.	.
8BB-/J	16b-\	16dd\	.	16B-\	.	16B-\	.	16dd\	.	.	.	.
.	16a\JJ	16cc\JJ	.	16c\JJ	.	16c\JJ	.	16ee-\JJ	.	.	.	.
!	!LO:LB:g=original	!	!	!	!	!	!	!LO:LB:g=original	!	!	!	!
=98	=98	=98	=98	=98	=98	=98	=98	=98	=98	=98	=98	=98
8BB-/L	16b-\LL	16dd\LL	.	8.B-\L	.	8.B-\L	.	8.dd\	.	2ryy	2ryy	.
.	16cc\	16ee-\	.	.	.	.	.	.	.	.	.	.
8BB-/	16b-\	16dd\	.	.	.	.	.	.	.	.	.	.
.	16cc\JJ	16ee-\JJ	.	16c\Jk	-mi-	16c\Jk	-mi-	16ee-\	-mi-	.	.	.
8BB-/	8dd\	8ff\	.	8d\	-ne	8d\	-ne	8ff\	-ne	.	.	.
8BB-/J	8r	8r	.	8r	.	8r	.	8r	.	.	.	.
*Xtremolo	*	*	*	*	*	*	*	*	*	*	*	*
=99	=99	=99	=99	=99	=99	=99	=99	=99	=99	=99	=99	=99
!LO:TX:a:t=problem: mixed beam	!	!	!	!	!	!	!	!	!	!	!	!
8F\L	8f/	8dd\	.	8r	.	8r	.	8r	.	2ryy	2ryy	.
8F\	8r	8r	.	8B-\	in	8B-\	in	8dd\	in	.	.	.
!	!	!	!	!LO:N:vis=8	!	!LO:N:vis=8	!	!	!	!	!	!
8B-\	4r	4r	.	16B-\	No-	16B-\	no-	8dd\	No-	.	.	.
!	!	!	!	!LO:N:vis=8	!	!LO:N:vis=8	!	!	!	!	!	!
.	.	.	.	16B-\	.	16B-\	.	.	.	.	.	.
8BB-/J	.	.	.	16B-\	-mi-	16B-\	-mi-	16dd\	-mi-	.	.	.
.	.	.	.	16B-\	-ne	16B-\	-ne	16dd\	-ne	.	.	.
!	!	!	!	!LO:LB:g=original	!	!	!	!	!	!	!	!
=100	=100	=100	=100	=100	=100	=100	=100	=100	=100	=100	=100	=100
!	!LO:TX:a:t=1.	!	!	!	!	!	!	!	!	!	!	!LO:N:vis=0
8B-\	2r	2r;	.	4B-;\	Do-	4B-;\	Do-	4dd;\	Do-	2ryy	2ryy	1r;
8r	.	.	.	.	.	.	.	.	.	.	.	.
4r	.	.	.	4At\	-mi-	4At\	-mi-	4cc\	-mi-	.	.	.
!	!	!	!	!	!	!LO:LB:g=original	!	!	!	!	!	!
=101	=101	=101	=101	=101	=101	=101	=101	=101	=101	=101	=101	=101
!LO:TX:a:t=problem: niepotrzebny pusty takt -  burzy pion	!LO:TX:a:t=problem: pusty takt dopisany dla wyrównania pionu z błędnym Fundamento	!LO:TX:a:t=problem: pusty takt dopisany dla wyrównania pionu z błędnym Fundamento	!	!LO:TX:a:t=problem: pusty takt dopisany dla wyrównania pionu z błędnym Fundamento	!	!LO:TX:a:t=problem: pusty takt dopisany dla wyrównania pionu z błędnym Fundamento	!	!	!	!	!	!
2r;	2ryy	2ryy	.	2ryy	.	2ryy	.	2ryy	.	2ryy	2ryy	.
=102	=102	=102	=102	=102	=102	=102	=102	=102	=102	=102	=102	=102
8r	8r	8r	.	4B-\	-ni	4B-\	-ni	4b-\	-ni	2ryy	2ryy	8r
8D\L	16d/LL	16f/LL	f	.	.	.	.	.	.	.	.	16ff\LL
.	16e-/JJ	16g/JJ	.	.	.	.	.	.	.	.	.	16gg\JJ
8E-\	8d/L	8f/L	.	4r	.	4r	.	4r	.	.	.	8ff\
8F\J	8c/J	8a/J	.	.	.	.	.	.	.	.	.	8aa\
=103	=103	=103	=103	=103	=103	=103	=103	=103	=103	=103	=103	=103
!LO:TX:a:t=problem: mixed beam	!	!	!	!LO:N:vis=00	!	!LO:N:vis=00	!	!LO:N:vis=00	!	!	!	!
8B-\L	4c/	(4a/	.	0r	.	0r	.	0r	.	2ryy	2ryy	4aa\
8F\	.	.	.	.	.	.	.	.	.	.	.	.
8BB-/J	8B-/	8b-/)	.	.	.	.	.	.	.	.	.	8bb-\
8r	16.dd\LL	16.ff\LL	.	.	.	.	.	.	.	.	.	8r
!	!LO:TX:a:t=[segno]	!LO:TX:a:t=ad segno	!	!	!	!	!	!	!	!	!	!
.	32dd\JJk	32ff\JJk	.	.	.	.	.	.	.	.	.	.
=104	=104	=104	=104	=104	=104	=104	=104	=104	=104	=104	=104	=104
!	!	!	!	!	!	!	!	!	!	!	!	!LO:TX:a:t=3.
!	!	!	!	!	!	!	!	!	!	!	!	!LO:N:vis=0
8r	8.dd\L	8.ff\L	.	.	.	.	.	.	.	2ryy	2ryy	1r
!LO:TX:a:t=problem: mixed beam	!	!	!	!	!	!	!	!	!	!	!	!
8B-\L	.	.	.	.	.	.	.	.	.	.	.	.
.	16ee-\Jk	16gg\Jk	.	.	.	.	.	.	.	.	.	.
8BB-/J	16ee-\LL	(16gg\LL	.	.	.	.	.	.	.	.	.	.
.	16dd\	16ff\	.	.	.	.	.	.	.	.	.	.
8r	16cc\	16ee-\	.	.	.	.	.	.	.	.	.	.
.	16b-\JJ	16dd\JJ)	.	.	.	.	.	.	.	.	.	.
=105	=105	=105	=105	=105	=105	=105	=105	=105	=105	=105	=105	=105
!	!LO:TX:a:t=problem: w źródle ad segno, nie rozpisane	!LO:TX:a:t=problem: w źródle ad segno, nie rozpisane	!	!	!	!	!	!	!	!	!	!
8r	8.cc\L	8.ee-\L	.	.	.	.	.	.	.	2ryy	2ryy	.
!LO:TX:a:t=problem: mixed beam	!	!	!	!	!	!	!	!	!	!	!	!
8F/L	.	.	.	.	.	.	.	.	.	.	.	.
.	16dd\Jk	16ff\Jk	.	.	.	.	.	.	.	.	.	.
8FF/J	16dd\LL	16ff\LL	.	.	.	.	.	.	.	.	.	.
.	16cc\	16ee-\	.	.	.	.	.	.	.	.	.	.
8r	16b-\	16dd\	.	.	.	.	.	.	.	.	.	.
.	16a\JJ	16cc\JJ	.	.	.	.	.	.	.	.	.	.
=106	=106	=106	=106	=106	=106	=106	=106	=106	=106	=106	=106	=106
8r	16b-\LL	16dd\LL	.	.	.	.	.	.	.	2ryy	2ryy	2r
.	32cc\L	32ee-\L	.	.	.	.	.	.	.	.	.	.
.	32b-\JJJ	32dd\JJJ	.	.	.	.	.	.	.	.	.	.
8D\L	32dd\LLL	(32ff\LLL	.	.	.	.	.	.	.	.	.	.
.	32cc\	32ee-\	.	.	.	.	.	.	.	.	.	.
.	32b-\	32dd\	.	.	.	.	.	.	.	.	.	.
.	32a\JJJ	32cc\JJJ	.	.	.	.	.	.	.	.	.	.
8E-\	8d/L	8b-\L)	.	.	.	.	.	.	.	.	.	.
8F\J	8c/J	8a\J	.	.	.	.	.	.	.	.	.	.
!LO:LB:g=original	!	!	!	!	!	!	!	!	!	!	!	!
=107	=107	=107	=107	=107	=107	=107	=107	=107	=107	=107	=107	=107
!LO:TX:a:t=problem: mixed beam	!	!	!	!LO:N:vis=00	!	!LO:N:vis=00	!	!LO:N:vis=00	!	!	!	!
8B-\L	(4c/	(4a/	.	0r	.	0r	.	0r	.	2ryy	2ryy	4r
8F\	.	.	.	.	.	.	.	.	.	.	.	.
8BB-/J	8d/L)	8b-/L	.	.	.	.	.	.	.	.	.	8r
8r	16.d/L	16.f/L)	p	.	.	.	.	.	.	.	.	16.ff\LL
.	32d/JJk	32f/JJk	.	.	.	.	.	.	.	.	.	32ff\JJk
=108	=108	=108	=108	=108	=108	=108	=108	=108	=108	=108	=108	=108
8r	8.d/L	8.f/L	.	.	.	.	.	.	.	2ryy	2ryy	8.ff\L
!LO:TX:a:t=problem: mixed beam	!	!	!	!	!	!	!	!	!	!	!	!
8B-\L	.	.	.	.	.	.	.	.	.	.	.	.
.	16e-/Jk	16g/Jk	.	.	.	.	.	.	.	.	.	16gg\Jk
8BB-/J	16e-/LL	16g/LL	.	.	.	.	.	.	.	.	.	16gg\LL
.	16d/	16f/	.	.	.	.	.	.	.	.	.	16ff\
8r	16c/	16e-/	.	.	.	.	.	.	.	.	.	16ee-\
.	16B-/JJ	16d/JJ	.	.	.	.	.	.	.	.	.	16dd\JJ
!	!	!	!	!	!	!	!	!	!	!	!	!LO:LB:g=original
=109	=109	=109	=109	=109	=109	=109	=109	=109	=109	=109	=109	=109
8r	8.c/L	8e-/L	.	.	.	.	.	.	.	2ryy	2ryy	8.ee-\L
!LO:TX:a:t=problem: mixed beam	!	!	!	!	!	!	!	!	!	!	!	!
8F\L	.	8f/J	.	.	.	.	.	.	.	.	.	.
.	16d/Jk	.	.	.	.	.	.	.	.	.	.	16ff\Jk
8FF/J	16d/LL	16f/LL	.	.	.	.	.	.	.	.	.	16ff\LL
.	16c/	16e-/	.	.	.	.	.	.	.	.	.	16ee-\
8r	16B-/	16d/	.	.	.	.	.	.	.	.	.	16dd\
.	16A/JJ	16c/JJ	.	.	.	.	.	.	.	.	.	16cc\JJ
!	!LO:LB:g=original	!LO:LB:g=original	!	!	!	!	!	!	!	!	!	!
=110	=110	=110	=110	=110	=110	=110	=110	=110	=110	=110	=110	=110
8BB-/L	16B-/LL	16d/LL	.	.	.	.	.	.	.	2ryy	2ryy	16dd\LL
.	16d/	16f/	.	.	.	.	.	.	.	.	.	16ff\
8BB-/	16d/	16f/	.	.	.	.	.	.	.	.	.	16ff\
.	16B-/JJ	16d/JJ	.	.	.	.	.	.	.	.	.	16bb-\JJ
!	!LO:TX:a:t=problem:kropka pod klamrą łukową zamiast cyfry	!LO:TX:a:t=problem:kropka pod klamrą łukową zamiast cyfry	!	!	!	!	!	!	!	!	!	!LO:TX:a:t=problem:kropka pod klamrą łukową
8BB-/	24g/LL	24b-/LL	.	.	.	.	.	.	.	.	.	24bb-\LL
.	24f/	24a/	.	.	.	.	.	.	.	.	.	24aa\
.	24e-/JJ	24g/JJ	.	.	.	.	.	.	.	.	.	24gg\JJ
!	!LO:TX:a:t=problem:kropka pod klamrą łukową zamiast cyfry	!LO:TX:a:t=problem:kropka pod klamrą łukową zamiast cyfry	!	!	!	!	!	!	!	!	!	!LO:TX:a:t=problem:kropka pod klamrą łukową
8BB-/J	24d/LL	24f/LL	.	.	.	.	.	.	.	.	.	24ff\LL
.	24c/	24e-/	.	.	.	.	.	.	.	.	.	24ee-\
.	24B-/JJ	24d/JJ	.	.	.	.	.	.	.	.	.	24dd\JJ
*Xtremolo	*	*	*	*	*	*	*	*	*	*	*	*
=111	=111	=111	=111	=111	=111	=111	=111	=111	=111	=111	=111	=111
!LO:TX:a:t=problem: mixed beam	!	!	!	!LO:N:vis=00	!	!LO:N:vis=00	!	!LO:N:vis=00	!	!	!	!
8r	16c/LL	16e-/LL	.	0r	.	0r	.	0r	.	2ryy	2ryy	(32ee-\LLL
.	.	.	.	.	.	.	.	.	.	.	.	32dd\
.	16B-/J	16d/J	.	.	.	.	.	.	.	.	.	32cc\
.	.	.	.	.	.	.	.	.	.	.	.	32dd\JJ)
8F/L	8A/J	8c/J	.	.	.	.	.	.	.	.	.	8cc\J
8FF/J	8r	8r	.	.	.	.	.	.	.	.	.	4r
8r	16a\LL	16cc\LL	.	.	.	.	.	.	.	.	.	.
.	16b-\JJ	16dd\JJ	.	.	.	.	.	.	.	.	.	.
=112	=112	=112	=112	=112	=112	=112	=112	=112	=112	=112	=112	=112
!	!	!	!	!	!	!	!	!	!	!	!	!LO:N:vis=00
8r	16b-\LL	16dd\LL	.	.	.	.	.	.	.	2ryy	2ryy	0r
.	16a\	16cc\	.	.	.	.	.	.	.	.	.	.
8B-\L	16cc\	16ee-\	.	.	.	.	.	.	.	.	.	.
.	16b-\JJ	16dd\JJ	.	.	.	.	.	.	.	.	.	.
8A\	16ee-\LL	16gg\LL	.	.	.	.	.	.	.	.	.	.
.	16dd\	16ff\	.	.	.	.	.	.	.	.	.	.
8B-\J	16gg\	16bb-\	.	.	.	.	.	.	.	.	.	.
.	16ff\JJ	16gg\JJ	.	.	.	.	.	.	.	.	.	.
=113	=113	=113	=113	=113	=113	=113	=113	=113	=113	=113	=113	=113
!LO:TX:a:t=problem: mixed beam	!	!	!	!	!	!	!	!	!	!	!	!
8F\L	8.dd\L	8.ff\L	.	.	.	.	.	.	.	2ryy	2ryy	.
8A\	.	.	.	.	.	.	.	.	.	.	.	.
.	16cc\Jk	16ee-\Jk	.	.	.	.	.	.	.	.	.	.
8B-\	8b-\L	8dd\L	.	.	.	.	.	.	.	.	.	.
8BB-/J	16a\L	16cc\L	.	.	.	.	.	.	.	.	.	.
.	16b-\JJ	16dd\JJ	.	.	.	.	.	.	.	.	.	.
=114	=114	=114	=114	=114	=114	=114	=114	=114	=114	=114	=114	=114
8r	16b-\LL	16dd\LL	.	.	.	.	.	.	.	2ryy	2ryy	.
.	16a\	16cc\	.	.	.	.	.	.	.	.	.	.
8B-\L	16cc\	16ee-\	.	.	.	.	.	.	.	.	.	.
.	16b-\JJ	16dd\JJ	.	.	.	.	.	.	.	.	.	.
8A\	16ee-\LL	16gg\LL	.	.	.	.	.	.	.	.	.	.
.	16dd\	16ff\	.	.	.	.	.	.	.	.	.	.
8B-\J	16gg\	16bb-\	.	.	.	.	.	.	.	.	.	.
.	16ff\JJ	16gg\JJ	.	.	.	.	.	.	.	.	.	.
=115	=115	=115	=115	=115	=115	=115	=115	=115	=115	=115	=115	=115
!LO:TX:a:t=problem: mixed beam	!	!	!	!LO:N:vis=00	!	!LO:N:vis=00	!	!LO:N:vis=00	!	!	!	!
8F\L	8.dd\L	8.ff\L	.	0r	.	0r	.	0r	.	2ryy	2ryy	.
8A\	.	.	.	.	.	.	.	.	.	.	.	.
.	16cc\Jk	16ee-\Jk	.	.	.	.	.	.	.	.	.	.
8B-\	8b-\L	8.dd\L	.	.	.	.	.	.	.	.	.	.
8BB-/J	8gg\J	.	.	.	.	.	.	.	.	.	.	.
.	.	16bb-\Jk	.	.	.	.	.	.	.	.	.	.
=116	=116	=116	=116	=116	=116	=116	=116	=116	=116	=116	=116	=116
!LO:TX:a:t=problem: mixed beam	!	!	!	!	!	!	!	!	!	!	!	!LO:N:vis=00
8E-\L	16ff\LL	16aa-X\LL	.	.	.	.	.	.	.	2ryy	2ryy	0r
.	16ee-\	16gg\	.	.	.	.	.	.	.	.	.	.
8G\	16dd\	16ff\	.	.	.	.	.	.	.	.	.	.
.	16cc\JJ	16ee-\JJ	.	.	.	.	.	.	.	.	.	.
8F\	8b-\L	16ee-\LL	.	.	.	.	.	.	.	.	.	.
.	.	16dd\	.	.	.	.	.	.	.	.	.	.
8FF/J	8a\J	16dd\	.	.	.	.	.	.	.	.	.	.
.	.	16cc\JJ	.	.	.	.	.	.	.	.	.	.
=117	=117	=117	=117	=117	=117	=117	=117	=117	=117	=117	=117	=117
!LO:TX:a:t=problem: mixed beam	!	!	!	!	!	!	!	!	!	!	!	!
8FF/L	4a\	(4cc#X\	.	.	.	.	.	.	.	2ryy	2ryy	.
8C/	.	.	.	.	.	.	.	.	.	.	.	.
!	!LO:TX:a:t=problem: mixed beam	!LO:TX:a:t=problem: mixed beam	!	!	!	!	!	!	!	!	!	!
8BB-/J	8b-\L	8dd\L)	.	.	.	.	.	.	.	.	.	.
8r	16A/L	16cn/L	.	.	.	.	.	.	.	.	.	.
.	16B-/JJ	16d/JJ	.	.	.	.	.	.	.	.	.	.
!LO:LB:g=original	!LO:LB:g=original	!	!	!	!	!	!	!	!	!	!	!
=118	=118	=118	=118	=118	=118	=118	=118	=118	=118	=118	=118	=118
8r	16c/LL	16e-/LL	.	.	.	.	.	.	.	2ryy	2ryy	.
.	16B-/	16d/	.	.	.	.	.	.	.	.	.	.
8BB-/L	16e-/	16g/	.	.	.	.	.	.	.	.	.	.
.	16d/JJ	16f/JJ	.	.	.	.	.	.	.	.	.	.
8AA/	16g/LL	16b-\LL	.	.	.	.	.	.	.	.	.	.
.	16f/	16a\	.	.	.	.	.	.	.	.	.	.
8BB-/J	16b-/	16dd\	.	.	.	.	.	.	.	.	.	.
.	16g/JJ	16b-\JJ	.	.	.	.	.	.	.	.	.	.
=119	=119	=119	=119	=119	=119	=119	=119	=119	=119	=119	=119	=119
!LO:TX:a:t=problem: mixed beam	!	!	!	!LO:N:vis=00	!	!LO:N:vis=00	!	!LO:N:vis=00	!	!	!	!
8FF/L	8.d/L	8.f/L	.	0r	.	0r	.	0r	.	2ryy	2ryy	.
8AA/	.	.	.	.	.	.	.	.	.	.	.	.
.	16c/Jk	16e-/Jk	.	.	.	.	.	.	.	.	.	.
8BB-/	8B-/L	8d/L	.	.	.	.	.	.	.	.	.	.
8B-\J	16A/L	16c/L	.	.	.	.	.	.	.	.	.	.
.	16B-/JJ	16d/JJ	.	.	.	.	.	.	.	.	.	.
!	!	!LO:LB:g=original	!	!	!	!	!	!	!	!	!	!
=120	=120	=120	=120	=120	=120	=120	=120	=120	=120	=120	=120	=120
!	!	!	!	!	!	!	!	!	!	!	!	!LO:N:vis=00
8r	16c/LL	16e-/LL	.	.	.	.	.	.	.	2ryy	2ryy	0r
.	16B-/	16d/	.	.	.	.	.	.	.	.	.	.
!LO:TX:a:t=problem: mixed beam	!	!	!	!	!	!	!	!	!	!	!	!
8BB-/L	16e-/	16g/	.	.	.	.	.	.	.	.	.	.
.	16d/JJ	16f/JJ	.	.	.	.	.	.	.	.	.	.
8AA/	16g/LL	16b-\LL	.	.	.	.	.	.	.	.	.	.
.	16f/	16a\	.	.	.	.	.	.	.	.	.	.
8BB-/J	16b-/	16dd\	.	.	.	.	.	.	.	.	.	.
.	16d/JJ	16b-\JJ	.	.	.	.	.	.	.	.	.	.
=121	=121	=121	=121	=121	=121	=121	=121	=121	=121	=121	=121	=121
!LO:TX:a:t=problem: mixed beam	!	!	!	!	!	!	!	!	!	!	!	!
8F\L	8.d/L	8.f/L	.	.	.	.	.	.	.	2ryy	2ryy	.
8FF/	.	.	.	.	.	.	.	.	.	.	.	.
.	16c/Jk	16e-/Jk	.	.	.	.	.	.	.	.	.	.
!	!LO:TX:a:t=problem: mixed beam	!LO:TX:a:t=problem: mixed beam	!	!	!	!	!	!	!	!	!	!
8BB-/	8B-/L	8d/L	.	.	.	.	.	.	.	.	.	.
8B-\J	16dd\L	16ff\L	.	.	.	.	.	.	.	.	.	.
.	16gg\JJ	16bb-\JJ	.	.	.	.	.	.	.	.	.	.
=122	=122	=122	=122	=122	=122	=122	=122	=122	=122	=122	=122	=122
!LO:TX:a:t=problem: mixed beam	!LO:TX:a:t=problem:kropka pod klamrą łukową zamiast cyfry	!LO:TX:a:t=problem:kropka pod klamrą łukową zamiast cyfry	!	!	!	!	!	!LO:TX:a:t=problem: przekreślona podwójna kreska taktowa	!	!	!	!
8E-\L	24ee-\LL	24gg\LL	.	.	.	.	.	.	.	2ryy	2ryy	.
.	24gg\	24bb-\	.	.	.	.	.	.	.	.	.	.
.	24ff\JJ	24aa\JJ	.	.	.	.	.	.	.	.	.	.
!	!LO:TX:a:t=problem:kropka pod klamrą łukową zamiast cyfry	!LO:TX:a:t=problem:kropka pod klamrą łukową zamiast cyfry	!	!	!	!	!	!	!	!	!	!
8G\	24ee-\LL	24gg\LL	.	.	.	.	.	.	.	.	.	.
.	24dd\	24ff\	.	.	.	.	.	.	.	.	.	.
.	24cc\JJ	24ee-\JJ	.	.	.	.	.	.	.	.	.	.
8F\	8b-/L	8dd\L	.	.	.	.	.	.	.	.	.	.
8FF/J	8f/J	8cc\J	.	.	.	.	.	.	.	.	.	.
=123	=123	=123	=123	=123	=123	=123	=123	=123	=123	=123	=123	=123
!	!	!	!	!LO:TX:a:t=problem: przekreślona podwójna kreska taktowa	!	!LO:TX:a:t=problem: przekreślona podwójna kreska taktowa	!	!LO:TX:a:t=problem:brak 2 taktów	!	!	!	!
!	!	!	!	!LO:N:vis=1	!	!LO:N:vis=0	!	!	!	!	!	!
8BB-/	8f/L	8b-/L	.	2r	.	1r	.	2ryy	.	2ryy	2ryy	.
8r	16d/L	16f/L	.	.	.	.	.	.	.	.	.	.
.	16e-/JJ	16g/JJ	.	.	.	.	.	.	.	.	.	.
8r	8d/L	8f/L	.	.	.	.	.	.	.	.	.	.
8FF/	8c/J	8e-/J	.	.	.	.	.	.	.	.	.	.
=124	=124	=124	=124	=124	=124	=124	=124	=124	=124	=124	=124	=124
!	!	!	!	!LO:TX:a:t=problem:brak taktu	!	!	!	!	!	!	!	!LO:TX:a:t=problem: przekreślona podwójna kreska taktowa
8BB-/L	4c/	(4e-;/	.	2ryy	.	.	.	2ryy	.	2ryy	2ryy	2r
8F/	.	.	.	.	.	.	.	.	.	.	.	.
8BB-/J	8B-;/	8d/)	.	.	.	.	.	.	.	.	.	.
8r	8r	8r	.	.	.	.	.	.	.	.	.	.
=||	=||	=||	=||	=||	=||	=||	=||	=||	=||	=||	=||	=||
*-	*-	*-	*-	*-	*-	*-	*-	*-	*-	*-	*-	*-
!!!system-decoration: [(s1)][(s2)]s3[(s4,s5)]s6[(s7,s8,s9)]
!!!RDF**dynam: f=for
!!!ENC: Anna Matuszewska
!!!END: 2020-09-06
